(G-CODE GENERATED BY FLATCAM v8.994 - www.flatcam.org - Version Date: 2020/11/7)

(Name: power-bank-load-Edge_Cuts.gbr_cutout_cnc)
(Type: G-code from Geometry)
(Units: MM)

(Created on Sunday, 10 July 2022 at 14:49)

(This preprocessor is used with a motion controller loaded with GRBL firmware.)
(It is configured to be compatible with almost any version of GRBL firmware.)

(TOOL DIAMETER: 1.8 mm)
(Feedrate_XY: 45.0 mm/min)
(Feedrate_Z: 30.0 mm/min)
(Feedrate rapids 1500.0 mm/min)

(Z_Cut: -1.6 mm)
(DepthPerCut: 0.4 mm <=>4 passes)
(Z_Move: 2.0 mm)
(Z Start: None mm)
(Z End: 15.0 mm)
(X,Y End: 0.0000, 0.0000 mm)
(Steps per circle: 64)
(Steps per circle: 64)
(Preprocessor Geometry: grbl_11)

(X range:   -0.8010 ...   45.9530  mm)
(Y range:  -25.8870 ...    0.8010  mm)

(Spindle Speed: 12000.0 RPM)
G21
G90
G17
G94


G01 F45.00

M5             
G00 X0.0000 Y0.0000                
G00 Z2.0000

M03 S12000.0
G01 F45.00
G00 X-0.8010 Y-4.5710
G01 F30.00
G01 Z-0.4000
G01 F45.00
G01 X-0.8010 Y-0.2240 F45.00
G01 X-0.7997 Y-0.1725 F45.00
G01 X-0.7901 Y-0.0748 F45.00
G01 X-0.7700 Y0.0262 F45.00
G01 X-0.7407 Y0.1225 F45.00
G01 X-0.7020 Y0.2153 F45.00
G01 X-0.6545 Y0.3040 F45.00
G01 X-0.6000 Y0.3856 F45.00
G01 X-0.5346 Y0.4652 F45.00
G01 X-0.4634 Y0.5363 F45.00
G01 X-0.3876 Y0.5985 F45.00
G01 X-0.3040 Y0.6545 F45.00
G01 X-0.2153 Y0.7020 F45.00
G01 X-0.1225 Y0.7407 F45.00
G01 X-0.0239 Y0.7706 F45.00
G01 X0.0748 Y0.7901 F45.00
G01 X0.1725 Y0.7997 F45.00
G01 X0.2240 Y0.8010 F45.00
G01 X9.7875 Y0.8010 F45.00
G00 X9.7875 Y0.8010
G01 F30.00
G01 Z-0.8000
G01 F45.00
G01 X0.2240 Y0.8010 F45.00
G01 X0.1725 Y0.7997 F45.00
G01 X0.0748 Y0.7901 F45.00
G01 X-0.0239 Y0.7706 F45.00
G01 X-0.1225 Y0.7407 F45.00
G01 X-0.2153 Y0.7020 F45.00
G01 X-0.3040 Y0.6545 F45.00
G01 X-0.3876 Y0.5985 F45.00
G01 X-0.4634 Y0.5363 F45.00
G01 X-0.5346 Y0.4652 F45.00
G01 X-0.6000 Y0.3856 F45.00
G01 X-0.6545 Y0.3040 F45.00
G01 X-0.7020 Y0.2153 F45.00
G01 X-0.7407 Y0.1225 F45.00
G01 X-0.7700 Y0.0262 F45.00
G01 X-0.7901 Y-0.0748 F45.00
G01 X-0.7997 Y-0.1725 F45.00
G01 X-0.8010 Y-0.2240 F45.00
G01 X-0.8010 Y-4.5710 F45.00
G00 X-0.8010 Y-4.5710
G01 F30.00
G01 Z-1.2000
G01 F45.00
G01 X-0.8010 Y-0.2240 F45.00
G01 X-0.7997 Y-0.1725 F45.00
G01 X-0.7901 Y-0.0748 F45.00
G01 X-0.7700 Y0.0262 F45.00
G01 X-0.7407 Y0.1225 F45.00
G01 X-0.7020 Y0.2153 F45.00
G01 X-0.6545 Y0.3040 F45.00
G01 X-0.6000 Y0.3856 F45.00
G01 X-0.5346 Y0.4652 F45.00
G01 X-0.4634 Y0.5363 F45.00
G01 X-0.3876 Y0.5985 F45.00
G01 X-0.3040 Y0.6545 F45.00
G01 X-0.2153 Y0.7020 F45.00
G01 X-0.1225 Y0.7407 F45.00
G01 X-0.0239 Y0.7706 F45.00
G01 X0.0748 Y0.7901 F45.00
G01 X0.1725 Y0.7997 F45.00
G01 X0.2240 Y0.8010 F45.00
G01 X9.7875 Y0.8010 F45.00
G00 X9.7875 Y0.8010
G01 F30.00
G01 Z-1.6000
G01 F45.00
G01 X0.2240 Y0.8010 F45.00
G01 X0.1725 Y0.7997 F45.00
G01 X0.0748 Y0.7901 F45.00
G01 X-0.0239 Y0.7706 F45.00
G01 X-0.1225 Y0.7407 F45.00
G01 X-0.2153 Y0.7020 F45.00
G01 X-0.3040 Y0.6545 F45.00
G01 X-0.3876 Y0.5985 F45.00
G01 X-0.4634 Y0.5363 F45.00
G01 X-0.5346 Y0.4652 F45.00
G01 X-0.6000 Y0.3856 F45.00
G01 X-0.6545 Y0.3040 F45.00
G01 X-0.7020 Y0.2153 F45.00
G01 X-0.7407 Y0.1225 F45.00
G01 X-0.7700 Y0.0262 F45.00
G01 X-0.7901 Y-0.0748 F45.00
G01 X-0.7997 Y-0.1725 F45.00
G01 X-0.8010 Y-0.2240 F45.00
G01 X-0.8010 Y-4.5710 F45.00
G00 Z2.0000
G00 X12.0875 Y0.8010
G01 F30.00
G01 Z-0.4000
G01 F45.00
G01 X33.2645 Y0.8010 F45.00
G00 X33.2645 Y0.8010
G01 F30.00
G01 Z-0.8000
G01 F45.00
G01 X12.0875 Y0.8010 F45.00
G00 X12.0875 Y0.8010
G01 F30.00
G01 Z-1.2000
G01 F45.00
G01 X33.2645 Y0.8010 F45.00
G00 X33.2645 Y0.8010
G01 F30.00
G01 Z-1.6000
G01 F45.00
G01 X12.0875 Y0.8010 F45.00
G00 Z2.0000
G00 X35.5645 Y0.8010
G01 F30.00
G01 Z-0.4000
G01 F45.00
G01 X44.9280 Y0.8010 F45.00
G01 X44.9795 Y0.7997 F45.00
G01 X45.0772 Y0.7901 F45.00
G01 X45.1759 Y0.7706 F45.00
G01 X45.2722 Y0.7415 F45.00
G01 X45.3673 Y0.7020 F45.00
G01 X45.4560 Y0.6545 F45.00
G01 X45.5376 Y0.6000 F45.00
G01 X45.6154 Y0.5363 F45.00
G01 X45.6866 Y0.4652 F45.00
G01 X45.7520 Y0.3856 F45.00
G01 X45.8078 Y0.3019 F45.00
G01 X45.8540 Y0.2153 F45.00
G01 X45.8927 Y0.1225 F45.00
G01 X45.9226 Y0.0239 F45.00
G01 X45.9421 Y-0.0748 F45.00
G01 X45.9517 Y-0.1725 F45.00
G01 X45.9530 Y-0.2240 F45.00
G01 X45.9530 Y-4.5710 F45.00
G00 X45.9530 Y-4.5710
G01 F30.00
G01 Z-0.8000
G01 F45.00
G01 X45.9530 Y-0.2240 F45.00
G01 X45.9517 Y-0.1725 F45.00
G01 X45.9421 Y-0.0748 F45.00
G01 X45.9226 Y0.0239 F45.00
G01 X45.8927 Y0.1225 F45.00
G01 X45.8540 Y0.2153 F45.00
G01 X45.8078 Y0.3019 F45.00
G01 X45.7520 Y0.3856 F45.00
G01 X45.6866 Y0.4652 F45.00
G01 X45.6154 Y0.5363 F45.00
G01 X45.5376 Y0.6000 F45.00
G01 X45.4560 Y0.6545 F45.00
G01 X45.3673 Y0.7020 F45.00
G01 X45.2722 Y0.7415 F45.00
G01 X45.1759 Y0.7706 F45.00
G01 X45.0772 Y0.7901 F45.00
G01 X44.9795 Y0.7997 F45.00
G01 X44.9280 Y0.8010 F45.00
G01 X35.5645 Y0.8010 F45.00
G00 X35.5645 Y0.8010
G01 F30.00
G01 Z-1.2000
G01 F45.00
G01 X44.9280 Y0.8010 F45.00
G01 X44.9795 Y0.7997 F45.00
G01 X45.0772 Y0.7901 F45.00
G01 X45.1759 Y0.7706 F45.00
G01 X45.2722 Y0.7415 F45.00
G01 X45.3673 Y0.7020 F45.00
G01 X45.4560 Y0.6545 F45.00
G01 X45.5376 Y0.6000 F45.00
G01 X45.6154 Y0.5363 F45.00
G01 X45.6866 Y0.4652 F45.00
G01 X45.7520 Y0.3856 F45.00
G01 X45.8078 Y0.3019 F45.00
G01 X45.8540 Y0.2153 F45.00
G01 X45.8927 Y0.1225 F45.00
G01 X45.9226 Y0.0239 F45.00
G01 X45.9421 Y-0.0748 F45.00
G01 X45.9517 Y-0.1725 F45.00
G01 X45.9530 Y-0.2240 F45.00
G01 X45.9530 Y-4.5710 F45.00
G00 X45.9530 Y-4.5710
G01 F30.00
G01 Z-1.6000
G01 F45.00
G01 X45.9530 Y-0.2240 F45.00
G01 X45.9517 Y-0.1725 F45.00
G01 X45.9421 Y-0.0748 F45.00
G01 X45.9226 Y0.0239 F45.00
G01 X45.8927 Y0.1225 F45.00
G01 X45.8540 Y0.2153 F45.00
G01 X45.8078 Y0.3019 F45.00
G01 X45.7520 Y0.3856 F45.00
G01 X45.6866 Y0.4652 F45.00
G01 X45.6154 Y0.5363 F45.00
G01 X45.5376 Y0.6000 F45.00
G01 X45.4560 Y0.6545 F45.00
G01 X45.3673 Y0.7020 F45.00
G01 X45.2722 Y0.7415 F45.00
G01 X45.1759 Y0.7706 F45.00
G01 X45.0772 Y0.7901 F45.00
G01 X44.9795 Y0.7997 F45.00
G01 X44.9280 Y0.8010 F45.00
G01 X35.5645 Y0.8010 F45.00
G00 Z2.0000
G00 X45.9530 Y-6.8710
G01 F30.00
G01 Z-0.4000
G01 F45.00
G01 X45.9530 Y-18.0150 F45.00
G00 X45.9530 Y-18.0150
G01 F30.00
G01 Z-0.8000
G01 F45.00
G01 X45.9530 Y-6.8710 F45.00
G00 X45.9530 Y-6.8710
G01 F30.00
G01 Z-1.2000
G01 F45.00
G01 X45.9530 Y-18.0150 F45.00
G00 X45.9530 Y-18.0150
G01 F30.00
G01 Z-1.6000
G01 F45.00
G01 X45.9530 Y-6.8710 F45.00
G00 Z2.0000
G00 X45.9530 Y-20.3150
G01 F30.00
G01 Z-0.4000
G01 F45.00
G01 X45.9530 Y-24.8620 F45.00
G01 X45.9517 Y-24.9135 F45.00
G01 X45.9417 Y-25.0136 F45.00
G01 X45.9226 Y-25.1099 F45.00
G01 X45.8935 Y-25.2062 F45.00
G01 X45.8540 Y-25.3013 F45.00
G01 X45.8065 Y-25.3900 F45.00
G01 X45.7505 Y-25.4736 F45.00
G01 X45.6883 Y-25.5494 F45.00
G01 X45.6172 Y-25.6206 F45.00
G01 X45.5376 Y-25.6860 F45.00
G01 X45.4539 Y-25.7418 F45.00
G01 X45.3651 Y-25.7891 F45.00
G01 X45.2745 Y-25.8267 F45.00
G01 X45.1782 Y-25.8560 F45.00
G01 X45.0772 Y-25.8761 F45.00
G01 X44.9795 Y-25.8857 F45.00
G01 X44.9280 Y-25.8870 F45.00
G01 X35.5645 Y-25.8870 F45.00
G00 X35.5645 Y-25.8870
G01 F30.00
G01 Z-0.8000
G01 F45.00
G01 X44.9280 Y-25.8870 F45.00
G01 X44.9795 Y-25.8857 F45.00
G01 X45.0772 Y-25.8761 F45.00
G01 X45.1782 Y-25.8560 F45.00
G01 X45.2745 Y-25.8267 F45.00
G01 X45.3651 Y-25.7891 F45.00
G01 X45.4539 Y-25.7418 F45.00
G01 X45.5376 Y-25.6860 F45.00
G01 X45.6172 Y-25.6206 F45.00
G01 X45.6883 Y-25.5494 F45.00
G01 X45.7505 Y-25.4736 F45.00
G01 X45.8065 Y-25.3900 F45.00
G01 X45.8540 Y-25.3013 F45.00
G01 X45.8935 Y-25.2062 F45.00
G01 X45.9226 Y-25.1099 F45.00
G01 X45.9417 Y-25.0136 F45.00
G01 X45.9517 Y-24.9135 F45.00
G01 X45.9530 Y-24.8620 F45.00
G01 X45.9530 Y-20.3150 F45.00
G00 X45.9530 Y-20.3150
G01 F30.00
G01 Z-1.2000
G01 F45.00
G01 X45.9530 Y-24.8620 F45.00
G01 X45.9517 Y-24.9135 F45.00
G01 X45.9417 Y-25.0136 F45.00
G01 X45.9226 Y-25.1099 F45.00
G01 X45.8935 Y-25.2062 F45.00
G01 X45.8540 Y-25.3013 F45.00
G01 X45.8065 Y-25.3900 F45.00
G01 X45.7505 Y-25.4736 F45.00
G01 X45.6883 Y-25.5494 F45.00
G01 X45.6172 Y-25.6206 F45.00
G01 X45.5376 Y-25.6860 F45.00
G01 X45.4539 Y-25.7418 F45.00
G01 X45.3651 Y-25.7891 F45.00
G01 X45.2745 Y-25.8267 F45.00
G01 X45.1782 Y-25.8560 F45.00
G01 X45.0772 Y-25.8761 F45.00
G01 X44.9795 Y-25.8857 F45.00
G01 X44.9280 Y-25.8870 F45.00
G01 X35.5645 Y-25.8870 F45.00
G00 X35.5645 Y-25.8870
G01 F30.00
G01 Z-1.6000
G01 F45.00
G01 X44.9280 Y-25.8870 F45.00
G01 X44.9795 Y-25.8857 F45.00
G01 X45.0772 Y-25.8761 F45.00
G01 X45.1782 Y-25.8560 F45.00
G01 X45.2745 Y-25.8267 F45.00
G01 X45.3651 Y-25.7891 F45.00
G01 X45.4539 Y-25.7418 F45.00
G01 X45.5376 Y-25.6860 F45.00
G01 X45.6172 Y-25.6206 F45.00
G01 X45.6883 Y-25.5494 F45.00
G01 X45.7505 Y-25.4736 F45.00
G01 X45.8065 Y-25.3900 F45.00
G01 X45.8540 Y-25.3013 F45.00
G01 X45.8935 Y-25.2062 F45.00
G01 X45.9226 Y-25.1099 F45.00
G01 X45.9417 Y-25.0136 F45.00
G01 X45.9517 Y-24.9135 F45.00
G01 X45.9530 Y-24.8620 F45.00
G01 X45.9530 Y-20.3150 F45.00
G00 Z2.0000
G00 X33.2645 Y-25.8870
G01 F30.00
G01 Z-0.4000
G01 F45.00
G01 X12.0875 Y-25.8870 F45.00
G00 X12.0875 Y-25.8870
G01 F30.00
G01 Z-0.8000
G01 F45.00
G01 X33.2645 Y-25.8870 F45.00
G00 X33.2645 Y-25.8870
G01 F30.00
G01 Z-1.2000
G01 F45.00
G01 X12.0875 Y-25.8870 F45.00
G00 X12.0875 Y-25.8870
G01 F30.00
G01 Z-1.6000
G01 F45.00
G01 X33.2645 Y-25.8870 F45.00
G00 Z2.0000
G00 X9.7875 Y-25.8870
G01 F30.00
G01 Z-0.4000
G01 F45.00
G01 X0.2240 Y-25.8870 F45.00
G01 X0.1725 Y-25.8857 F45.00
G01 X0.0748 Y-25.8761 F45.00
G01 X-0.0239 Y-25.8566 F45.00
G01 X-0.1202 Y-25.8275 F45.00
G01 X-0.2153 Y-25.7880 F45.00
G01 X-0.3040 Y-25.7405 F45.00
G01 X-0.3876 Y-25.6845 F45.00
G01 X-0.4634 Y-25.6223 F45.00
G01 X-0.5346 Y-25.5512 F45.00
G01 X-0.6000 Y-25.4716 F45.00
G01 X-0.6545 Y-25.3900 F45.00
G01 X-0.7020 Y-25.3013 F45.00
G01 X-0.7407 Y-25.2085 F45.00
G01 X-0.7706 Y-25.1099 F45.00
G01 X-0.7901 Y-25.0112 F45.00
G01 X-0.7997 Y-24.9135 F45.00
G01 X-0.8010 Y-24.8620 F45.00
G01 X-0.8010 Y-20.3150 F45.00
G00 X-0.8010 Y-20.3150
G01 F30.00
G01 Z-0.8000
G01 F45.00
G01 X-0.8010 Y-24.8620 F45.00
G01 X-0.7997 Y-24.9135 F45.00
G01 X-0.7901 Y-25.0112 F45.00
G01 X-0.7706 Y-25.1099 F45.00
G01 X-0.7407 Y-25.2085 F45.00
G01 X-0.7020 Y-25.3013 F45.00
G01 X-0.6545 Y-25.3900 F45.00
G01 X-0.6000 Y-25.4716 F45.00
G01 X-0.5346 Y-25.5512 F45.00
G01 X-0.4634 Y-25.6223 F45.00
G01 X-0.3876 Y-25.6845 F45.00
G01 X-0.3040 Y-25.7405 F45.00
G01 X-0.2153 Y-25.7880 F45.00
G01 X-0.1202 Y-25.8275 F45.00
G01 X-0.0239 Y-25.8566 F45.00
G01 X0.0748 Y-25.8761 F45.00
G01 X0.1725 Y-25.8857 F45.00
G01 X0.2240 Y-25.8870 F45.00
G01 X9.7875 Y-25.8870 F45.00
G00 X9.7875 Y-25.8870
G01 F30.00
G01 Z-1.2000
G01 F45.00
G01 X0.2240 Y-25.8870 F45.00
G01 X0.1725 Y-25.8857 F45.00
G01 X0.0748 Y-25.8761 F45.00
G01 X-0.0239 Y-25.8566 F45.00
G01 X-0.1202 Y-25.8275 F45.00
G01 X-0.2153 Y-25.7880 F45.00
G01 X-0.3040 Y-25.7405 F45.00
G01 X-0.3876 Y-25.6845 F45.00
G01 X-0.4634 Y-25.6223 F45.00
G01 X-0.5346 Y-25.5512 F45.00
G01 X-0.6000 Y-25.4716 F45.00
G01 X-0.6545 Y-25.3900 F45.00
G01 X-0.7020 Y-25.3013 F45.00
G01 X-0.7407 Y-25.2085 F45.00
G01 X-0.7706 Y-25.1099 F45.00
G01 X-0.7901 Y-25.0112 F45.00
G01 X-0.7997 Y-24.9135 F45.00
G01 X-0.8010 Y-24.8620 F45.00
G01 X-0.8010 Y-20.3150 F45.00
G00 X-0.8010 Y-20.3150
G01 F30.00
G01 Z-1.6000
G01 F45.00
G01 X-0.8010 Y-24.8620 F45.00
G01 X-0.7997 Y-24.9135 F45.00
G01 X-0.7901 Y-25.0112 F45.00
G01 X-0.7706 Y-25.1099 F45.00
G01 X-0.7407 Y-25.2085 F45.00
G01 X-0.7020 Y-25.3013 F45.00
G01 X-0.6545 Y-25.3900 F45.00
G01 X-0.6000 Y-25.4716 F45.00
G01 X-0.5346 Y-25.5512 F45.00
G01 X-0.4634 Y-25.6223 F45.00
G01 X-0.3876 Y-25.6845 F45.00
G01 X-0.3040 Y-25.7405 F45.00
G01 X-0.2153 Y-25.7880 F45.00
G01 X-0.1202 Y-25.8275 F45.00
G01 X-0.0239 Y-25.8566 F45.00
G01 X0.0748 Y-25.8761 F45.00
G01 X0.1725 Y-25.8857 F45.00
G01 X0.2240 Y-25.8870 F45.00
G01 X9.7875 Y-25.8870 F45.00
G00 Z2.0000
G00 X-0.8010 Y-18.0150
G01 F30.00
G01 Z-0.4000
G01 F45.00
G01 X-0.8010 Y-6.8710 F45.00
G00 X-0.8010 Y-6.8710
G01 F30.00
G01 Z-0.8000
G01 F45.00
G01 X-0.8010 Y-18.0150 F45.00
G00 X-0.8010 Y-18.0150
G01 F30.00
G01 Z-1.2000
G01 F45.00
G01 X-0.8010 Y-6.8710 F45.00
G00 X-0.8010 Y-6.8710
G01 F30.00
G01 Z-1.6000
G01 F45.00
G01 X-0.8010 Y-18.0150 F45.00
G00 Z2.0000
M05
G00 Z2.0000
G00 Z15.00
G00 X0.0 Y0.0


