(G-CODE GENERATED BY FLATCAM v8.994 - www.flatcam.org - Version Date: 2020/11/7)

(Name: power-bank-load.drl_mill_cnc)
(Type: G-code from Geometry)
(Units: MM)

(Created on Sunday, 10 July 2022 at 15:07)

(This preprocessor is used with a motion controller loaded with GRBL firmware.)
(It is configured to be compatible with almost any version of GRBL firmware.)

(TOOL DIAMETER: 1.0 mm)
(Feedrate_XY: 45.0 mm/min)
(Feedrate_Z: 30.0 mm/min)
(Feedrate rapids 1500.0 mm/min)

(Z_Cut: -1.8 mm)
(DepthPerCut: 0.3 mm <=>6 passes)
(Z_Move: 2.0 mm)
(Z Start: None mm)
(Z End: 15.0 mm)
(X,Y End: 0.0000, 0.0000 mm)
(Steps per circle: 64)
(Steps per circle: 64)
(Preprocessor Geometry: grbl_11)

(X range:    2.7760 ...   38.0340  mm)
(Y range:  -22.5640 ...   -2.2680  mm)

(Spindle Speed: 12000.0 RPM)
G21
G90
G17
G94


G01 F45.00

M5             
G00 Z2.0000
G00 X0.0000 Y0.0000                

M03 S12000.0
G01 F45.00
G00 X4.2760 Y-3.0180
G01 F30.00
G01 Z-0.3000
G01 F45.00
G01 X4.2724 Y-3.0915 F45.00
G01 X4.2616 Y-3.1643 F45.00
G01 X4.2437 Y-3.2357 F45.00
G01 X4.2189 Y-3.3050 F45.00
G01 X4.1874 Y-3.3715 F45.00
G01 X4.1496 Y-3.4347 F45.00
G01 X4.1058 Y-3.4938 F45.00
G01 X4.0563 Y-3.5483 F45.00
G01 X4.0018 Y-3.5978 F45.00
G01 X3.9427 Y-3.6416 F45.00
G01 X3.8795 Y-3.6794 F45.00
G01 X3.8130 Y-3.7109 F45.00
G01 X3.7437 Y-3.7357 F45.00
G01 X3.6723 Y-3.7536 F45.00
G01 X3.5995 Y-3.7644 F45.00
G01 X3.5260 Y-3.7680 F45.00
G01 X3.4525 Y-3.7644 F45.00
G01 X3.3797 Y-3.7536 F45.00
G01 X3.3083 Y-3.7357 F45.00
G01 X3.2390 Y-3.7109 F45.00
G01 X3.1725 Y-3.6794 F45.00
G01 X3.1093 Y-3.6416 F45.00
G01 X3.0502 Y-3.5978 F45.00
G01 X2.9957 Y-3.5483 F45.00
G01 X2.9462 Y-3.4938 F45.00
G01 X2.9024 Y-3.4347 F45.00
G01 X2.8646 Y-3.3715 F45.00
G01 X2.8331 Y-3.3050 F45.00
G01 X2.8083 Y-3.2357 F45.00
G01 X2.7904 Y-3.1643 F45.00
G01 X2.7796 Y-3.0915 F45.00
G01 X2.7760 Y-3.0180 F45.00
G01 X2.7796 Y-2.9445 F45.00
G01 X2.7904 Y-2.8717 F45.00
G01 X2.8083 Y-2.8003 F45.00
G01 X2.8331 Y-2.7310 F45.00
G01 X2.8646 Y-2.6645 F45.00
G01 X2.9024 Y-2.6013 F45.00
G01 X2.9462 Y-2.5422 F45.00
G01 X2.9957 Y-2.4877 F45.00
G01 X3.0502 Y-2.4382 F45.00
G01 X3.1093 Y-2.3944 F45.00
G01 X3.1725 Y-2.3566 F45.00
G01 X3.2390 Y-2.3251 F45.00
G01 X3.3083 Y-2.3003 F45.00
G01 X3.3797 Y-2.2824 F45.00
G01 X3.4525 Y-2.2716 F45.00
G01 X3.5260 Y-2.2680 F45.00
G01 X3.5995 Y-2.2716 F45.00
G01 X3.6723 Y-2.2824 F45.00
G01 X3.7437 Y-2.3003 F45.00
G01 X3.8130 Y-2.3251 F45.00
G01 X3.8795 Y-2.3566 F45.00
G01 X3.9427 Y-2.3944 F45.00
G01 X4.0018 Y-2.4382 F45.00
G01 X4.0563 Y-2.4877 F45.00
G01 X4.1058 Y-2.5422 F45.00
G01 X4.1496 Y-2.6013 F45.00
G01 X4.1874 Y-2.6645 F45.00
G01 X4.2189 Y-2.7310 F45.00
G01 X4.2437 Y-2.8003 F45.00
G01 X4.2616 Y-2.8717 F45.00
G01 X4.2724 Y-2.9445 F45.00
G01 X4.2760 Y-3.0180 F45.00
G00 X4.2760 Y-3.0180
G01 F30.00
G01 Z-0.6000
G01 F45.00
G01 X4.2724 Y-3.0915 F45.00
G01 X4.2616 Y-3.1643 F45.00
G01 X4.2437 Y-3.2357 F45.00
G01 X4.2189 Y-3.3050 F45.00
G01 X4.1874 Y-3.3715 F45.00
G01 X4.1496 Y-3.4347 F45.00
G01 X4.1058 Y-3.4938 F45.00
G01 X4.0563 Y-3.5483 F45.00
G01 X4.0018 Y-3.5978 F45.00
G01 X3.9427 Y-3.6416 F45.00
G01 X3.8795 Y-3.6794 F45.00
G01 X3.8130 Y-3.7109 F45.00
G01 X3.7437 Y-3.7357 F45.00
G01 X3.6723 Y-3.7536 F45.00
G01 X3.5995 Y-3.7644 F45.00
G01 X3.5260 Y-3.7680 F45.00
G01 X3.4525 Y-3.7644 F45.00
G01 X3.3797 Y-3.7536 F45.00
G01 X3.3083 Y-3.7357 F45.00
G01 X3.2390 Y-3.7109 F45.00
G01 X3.1725 Y-3.6794 F45.00
G01 X3.1093 Y-3.6416 F45.00
G01 X3.0502 Y-3.5978 F45.00
G01 X2.9957 Y-3.5483 F45.00
G01 X2.9462 Y-3.4938 F45.00
G01 X2.9024 Y-3.4347 F45.00
G01 X2.8646 Y-3.3715 F45.00
G01 X2.8331 Y-3.3050 F45.00
G01 X2.8083 Y-3.2357 F45.00
G01 X2.7904 Y-3.1643 F45.00
G01 X2.7796 Y-3.0915 F45.00
G01 X2.7760 Y-3.0180 F45.00
G01 X2.7796 Y-2.9445 F45.00
G01 X2.7904 Y-2.8717 F45.00
G01 X2.8083 Y-2.8003 F45.00
G01 X2.8331 Y-2.7310 F45.00
G01 X2.8646 Y-2.6645 F45.00
G01 X2.9024 Y-2.6013 F45.00
G01 X2.9462 Y-2.5422 F45.00
G01 X2.9957 Y-2.4877 F45.00
G01 X3.0502 Y-2.4382 F45.00
G01 X3.1093 Y-2.3944 F45.00
G01 X3.1725 Y-2.3566 F45.00
G01 X3.2390 Y-2.3251 F45.00
G01 X3.3083 Y-2.3003 F45.00
G01 X3.3797 Y-2.2824 F45.00
G01 X3.4525 Y-2.2716 F45.00
G01 X3.5260 Y-2.2680 F45.00
G01 X3.5995 Y-2.2716 F45.00
G01 X3.6723 Y-2.2824 F45.00
G01 X3.7437 Y-2.3003 F45.00
G01 X3.8130 Y-2.3251 F45.00
G01 X3.8795 Y-2.3566 F45.00
G01 X3.9427 Y-2.3944 F45.00
G01 X4.0018 Y-2.4382 F45.00
G01 X4.0563 Y-2.4877 F45.00
G01 X4.1058 Y-2.5422 F45.00
G01 X4.1496 Y-2.6013 F45.00
G01 X4.1874 Y-2.6645 F45.00
G01 X4.2189 Y-2.7310 F45.00
G01 X4.2437 Y-2.8003 F45.00
G01 X4.2616 Y-2.8717 F45.00
G01 X4.2724 Y-2.9445 F45.00
G01 X4.2760 Y-3.0180 F45.00
G00 X4.2760 Y-3.0180
G01 F30.00
G01 Z-0.9000
G01 F45.00
G01 X4.2724 Y-3.0915 F45.00
G01 X4.2616 Y-3.1643 F45.00
G01 X4.2437 Y-3.2357 F45.00
G01 X4.2189 Y-3.3050 F45.00
G01 X4.1874 Y-3.3715 F45.00
G01 X4.1496 Y-3.4347 F45.00
G01 X4.1058 Y-3.4938 F45.00
G01 X4.0563 Y-3.5483 F45.00
G01 X4.0018 Y-3.5978 F45.00
G01 X3.9427 Y-3.6416 F45.00
G01 X3.8795 Y-3.6794 F45.00
G01 X3.8130 Y-3.7109 F45.00
G01 X3.7437 Y-3.7357 F45.00
G01 X3.6723 Y-3.7536 F45.00
G01 X3.5995 Y-3.7644 F45.00
G01 X3.5260 Y-3.7680 F45.00
G01 X3.4525 Y-3.7644 F45.00
G01 X3.3797 Y-3.7536 F45.00
G01 X3.3083 Y-3.7357 F45.00
G01 X3.2390 Y-3.7109 F45.00
G01 X3.1725 Y-3.6794 F45.00
G01 X3.1093 Y-3.6416 F45.00
G01 X3.0502 Y-3.5978 F45.00
G01 X2.9957 Y-3.5483 F45.00
G01 X2.9462 Y-3.4938 F45.00
G01 X2.9024 Y-3.4347 F45.00
G01 X2.8646 Y-3.3715 F45.00
G01 X2.8331 Y-3.3050 F45.00
G01 X2.8083 Y-3.2357 F45.00
G01 X2.7904 Y-3.1643 F45.00
G01 X2.7796 Y-3.0915 F45.00
G01 X2.7760 Y-3.0180 F45.00
G01 X2.7796 Y-2.9445 F45.00
G01 X2.7904 Y-2.8717 F45.00
G01 X2.8083 Y-2.8003 F45.00
G01 X2.8331 Y-2.7310 F45.00
G01 X2.8646 Y-2.6645 F45.00
G01 X2.9024 Y-2.6013 F45.00
G01 X2.9462 Y-2.5422 F45.00
G01 X2.9957 Y-2.4877 F45.00
G01 X3.0502 Y-2.4382 F45.00
G01 X3.1093 Y-2.3944 F45.00
G01 X3.1725 Y-2.3566 F45.00
G01 X3.2390 Y-2.3251 F45.00
G01 X3.3083 Y-2.3003 F45.00
G01 X3.3797 Y-2.2824 F45.00
G01 X3.4525 Y-2.2716 F45.00
G01 X3.5260 Y-2.2680 F45.00
G01 X3.5995 Y-2.2716 F45.00
G01 X3.6723 Y-2.2824 F45.00
G01 X3.7437 Y-2.3003 F45.00
G01 X3.8130 Y-2.3251 F45.00
G01 X3.8795 Y-2.3566 F45.00
G01 X3.9427 Y-2.3944 F45.00
G01 X4.0018 Y-2.4382 F45.00
G01 X4.0563 Y-2.4877 F45.00
G01 X4.1058 Y-2.5422 F45.00
G01 X4.1496 Y-2.6013 F45.00
G01 X4.1874 Y-2.6645 F45.00
G01 X4.2189 Y-2.7310 F45.00
G01 X4.2437 Y-2.8003 F45.00
G01 X4.2616 Y-2.8717 F45.00
G01 X4.2724 Y-2.9445 F45.00
G01 X4.2760 Y-3.0180 F45.00
G00 X4.2760 Y-3.0180
G01 F30.00
G01 Z-1.2000
G01 F45.00
G01 X4.2724 Y-3.0915 F45.00
G01 X4.2616 Y-3.1643 F45.00
G01 X4.2437 Y-3.2357 F45.00
G01 X4.2189 Y-3.3050 F45.00
G01 X4.1874 Y-3.3715 F45.00
G01 X4.1496 Y-3.4347 F45.00
G01 X4.1058 Y-3.4938 F45.00
G01 X4.0563 Y-3.5483 F45.00
G01 X4.0018 Y-3.5978 F45.00
G01 X3.9427 Y-3.6416 F45.00
G01 X3.8795 Y-3.6794 F45.00
G01 X3.8130 Y-3.7109 F45.00
G01 X3.7437 Y-3.7357 F45.00
G01 X3.6723 Y-3.7536 F45.00
G01 X3.5995 Y-3.7644 F45.00
G01 X3.5260 Y-3.7680 F45.00
G01 X3.4525 Y-3.7644 F45.00
G01 X3.3797 Y-3.7536 F45.00
G01 X3.3083 Y-3.7357 F45.00
G01 X3.2390 Y-3.7109 F45.00
G01 X3.1725 Y-3.6794 F45.00
G01 X3.1093 Y-3.6416 F45.00
G01 X3.0502 Y-3.5978 F45.00
G01 X2.9957 Y-3.5483 F45.00
G01 X2.9462 Y-3.4938 F45.00
G01 X2.9024 Y-3.4347 F45.00
G01 X2.8646 Y-3.3715 F45.00
G01 X2.8331 Y-3.3050 F45.00
G01 X2.8083 Y-3.2357 F45.00
G01 X2.7904 Y-3.1643 F45.00
G01 X2.7796 Y-3.0915 F45.00
G01 X2.7760 Y-3.0180 F45.00
G01 X2.7796 Y-2.9445 F45.00
G01 X2.7904 Y-2.8717 F45.00
G01 X2.8083 Y-2.8003 F45.00
G01 X2.8331 Y-2.7310 F45.00
G01 X2.8646 Y-2.6645 F45.00
G01 X2.9024 Y-2.6013 F45.00
G01 X2.9462 Y-2.5422 F45.00
G01 X2.9957 Y-2.4877 F45.00
G01 X3.0502 Y-2.4382 F45.00
G01 X3.1093 Y-2.3944 F45.00
G01 X3.1725 Y-2.3566 F45.00
G01 X3.2390 Y-2.3251 F45.00
G01 X3.3083 Y-2.3003 F45.00
G01 X3.3797 Y-2.2824 F45.00
G01 X3.4525 Y-2.2716 F45.00
G01 X3.5260 Y-2.2680 F45.00
G01 X3.5995 Y-2.2716 F45.00
G01 X3.6723 Y-2.2824 F45.00
G01 X3.7437 Y-2.3003 F45.00
G01 X3.8130 Y-2.3251 F45.00
G01 X3.8795 Y-2.3566 F45.00
G01 X3.9427 Y-2.3944 F45.00
G01 X4.0018 Y-2.4382 F45.00
G01 X4.0563 Y-2.4877 F45.00
G01 X4.1058 Y-2.5422 F45.00
G01 X4.1496 Y-2.6013 F45.00
G01 X4.1874 Y-2.6645 F45.00
G01 X4.2189 Y-2.7310 F45.00
G01 X4.2437 Y-2.8003 F45.00
G01 X4.2616 Y-2.8717 F45.00
G01 X4.2724 Y-2.9445 F45.00
G01 X4.2760 Y-3.0180 F45.00
G00 X4.2760 Y-3.0180
G01 F30.00
G01 Z-1.5000
G01 F45.00
G01 X4.2724 Y-3.0915 F45.00
G01 X4.2616 Y-3.1643 F45.00
G01 X4.2437 Y-3.2357 F45.00
G01 X4.2189 Y-3.3050 F45.00
G01 X4.1874 Y-3.3715 F45.00
G01 X4.1496 Y-3.4347 F45.00
G01 X4.1058 Y-3.4938 F45.00
G01 X4.0563 Y-3.5483 F45.00
G01 X4.0018 Y-3.5978 F45.00
G01 X3.9427 Y-3.6416 F45.00
G01 X3.8795 Y-3.6794 F45.00
G01 X3.8130 Y-3.7109 F45.00
G01 X3.7437 Y-3.7357 F45.00
G01 X3.6723 Y-3.7536 F45.00
G01 X3.5995 Y-3.7644 F45.00
G01 X3.5260 Y-3.7680 F45.00
G01 X3.4525 Y-3.7644 F45.00
G01 X3.3797 Y-3.7536 F45.00
G01 X3.3083 Y-3.7357 F45.00
G01 X3.2390 Y-3.7109 F45.00
G01 X3.1725 Y-3.6794 F45.00
G01 X3.1093 Y-3.6416 F45.00
G01 X3.0502 Y-3.5978 F45.00
G01 X2.9957 Y-3.5483 F45.00
G01 X2.9462 Y-3.4938 F45.00
G01 X2.9024 Y-3.4347 F45.00
G01 X2.8646 Y-3.3715 F45.00
G01 X2.8331 Y-3.3050 F45.00
G01 X2.8083 Y-3.2357 F45.00
G01 X2.7904 Y-3.1643 F45.00
G01 X2.7796 Y-3.0915 F45.00
G01 X2.7760 Y-3.0180 F45.00
G01 X2.7796 Y-2.9445 F45.00
G01 X2.7904 Y-2.8717 F45.00
G01 X2.8083 Y-2.8003 F45.00
G01 X2.8331 Y-2.7310 F45.00
G01 X2.8646 Y-2.6645 F45.00
G01 X2.9024 Y-2.6013 F45.00
G01 X2.9462 Y-2.5422 F45.00
G01 X2.9957 Y-2.4877 F45.00
G01 X3.0502 Y-2.4382 F45.00
G01 X3.1093 Y-2.3944 F45.00
G01 X3.1725 Y-2.3566 F45.00
G01 X3.2390 Y-2.3251 F45.00
G01 X3.3083 Y-2.3003 F45.00
G01 X3.3797 Y-2.2824 F45.00
G01 X3.4525 Y-2.2716 F45.00
G01 X3.5260 Y-2.2680 F45.00
G01 X3.5995 Y-2.2716 F45.00
G01 X3.6723 Y-2.2824 F45.00
G01 X3.7437 Y-2.3003 F45.00
G01 X3.8130 Y-2.3251 F45.00
G01 X3.8795 Y-2.3566 F45.00
G01 X3.9427 Y-2.3944 F45.00
G01 X4.0018 Y-2.4382 F45.00
G01 X4.0563 Y-2.4877 F45.00
G01 X4.1058 Y-2.5422 F45.00
G01 X4.1496 Y-2.6013 F45.00
G01 X4.1874 Y-2.6645 F45.00
G01 X4.2189 Y-2.7310 F45.00
G01 X4.2437 Y-2.8003 F45.00
G01 X4.2616 Y-2.8717 F45.00
G01 X4.2724 Y-2.9445 F45.00
G01 X4.2760 Y-3.0180 F45.00
G00 X4.2760 Y-3.0180
G01 F30.00
G01 Z-1.8000
G01 F45.00
G01 X4.2724 Y-3.0915 F45.00
G01 X4.2616 Y-3.1643 F45.00
G01 X4.2437 Y-3.2357 F45.00
G01 X4.2189 Y-3.3050 F45.00
G01 X4.1874 Y-3.3715 F45.00
G01 X4.1496 Y-3.4347 F45.00
G01 X4.1058 Y-3.4938 F45.00
G01 X4.0563 Y-3.5483 F45.00
G01 X4.0018 Y-3.5978 F45.00
G01 X3.9427 Y-3.6416 F45.00
G01 X3.8795 Y-3.6794 F45.00
G01 X3.8130 Y-3.7109 F45.00
G01 X3.7437 Y-3.7357 F45.00
G01 X3.6723 Y-3.7536 F45.00
G01 X3.5995 Y-3.7644 F45.00
G01 X3.5260 Y-3.7680 F45.00
G01 X3.4525 Y-3.7644 F45.00
G01 X3.3797 Y-3.7536 F45.00
G01 X3.3083 Y-3.7357 F45.00
G01 X3.2390 Y-3.7109 F45.00
G01 X3.1725 Y-3.6794 F45.00
G01 X3.1093 Y-3.6416 F45.00
G01 X3.0502 Y-3.5978 F45.00
G01 X2.9957 Y-3.5483 F45.00
G01 X2.9462 Y-3.4938 F45.00
G01 X2.9024 Y-3.4347 F45.00
G01 X2.8646 Y-3.3715 F45.00
G01 X2.8331 Y-3.3050 F45.00
G01 X2.8083 Y-3.2357 F45.00
G01 X2.7904 Y-3.1643 F45.00
G01 X2.7796 Y-3.0915 F45.00
G01 X2.7760 Y-3.0180 F45.00
G01 X2.7796 Y-2.9445 F45.00
G01 X2.7904 Y-2.8717 F45.00
G01 X2.8083 Y-2.8003 F45.00
G01 X2.8331 Y-2.7310 F45.00
G01 X2.8646 Y-2.6645 F45.00
G01 X2.9024 Y-2.6013 F45.00
G01 X2.9462 Y-2.5422 F45.00
G01 X2.9957 Y-2.4877 F45.00
G01 X3.0502 Y-2.4382 F45.00
G01 X3.1093 Y-2.3944 F45.00
G01 X3.1725 Y-2.3566 F45.00
G01 X3.2390 Y-2.3251 F45.00
G01 X3.3083 Y-2.3003 F45.00
G01 X3.3797 Y-2.2824 F45.00
G01 X3.4525 Y-2.2716 F45.00
G01 X3.5260 Y-2.2680 F45.00
G01 X3.5995 Y-2.2716 F45.00
G01 X3.6723 Y-2.2824 F45.00
G01 X3.7437 Y-2.3003 F45.00
G01 X3.8130 Y-2.3251 F45.00
G01 X3.8795 Y-2.3566 F45.00
G01 X3.9427 Y-2.3944 F45.00
G01 X4.0018 Y-2.4382 F45.00
G01 X4.0563 Y-2.4877 F45.00
G01 X4.1058 Y-2.5422 F45.00
G01 X4.1496 Y-2.6013 F45.00
G01 X4.1874 Y-2.6645 F45.00
G01 X4.2189 Y-2.7310 F45.00
G01 X4.2437 Y-2.8003 F45.00
G01 X4.2616 Y-2.8717 F45.00
G01 X4.2724 Y-2.9445 F45.00
G01 X4.2760 Y-3.0180 F45.00
G00 Z2.0000
G00 X3.8720 Y-10.1160
G01 F30.00
G01 Z-0.3000
G01 F45.00
G01 X3.8710 Y-10.1258 F45.00
G01 X3.8682 Y-10.1351 F45.00
G01 X3.8636 Y-10.1438 F45.00
G01 X3.8574 Y-10.1514 F45.00
G01 X3.8498 Y-10.1576 F45.00
G01 X3.8411 Y-10.1622 F45.00
G01 X3.8318 Y-10.1650 F45.00
G01 X3.8220 Y-10.1660 F45.00
G01 X3.8122 Y-10.1650 F45.00
G01 X3.8029 Y-10.1622 F45.00
G01 X3.7942 Y-10.1576 F45.00
G01 X3.7866 Y-10.1514 F45.00
G01 X3.7804 Y-10.1438 F45.00
G01 X3.7758 Y-10.1351 F45.00
G01 X3.7730 Y-10.1258 F45.00
G01 X3.7720 Y-10.1160 F45.00
G01 X3.7730 Y-10.1062 F45.00
G01 X3.7758 Y-10.0969 F45.00
G01 X3.7804 Y-10.0882 F45.00
G01 X3.7866 Y-10.0806 F45.00
G01 X3.7942 Y-10.0744 F45.00
G01 X3.8029 Y-10.0698 F45.00
G01 X3.8122 Y-10.0670 F45.00
G01 X3.8220 Y-10.0660 F45.00
G01 X3.8318 Y-10.0670 F45.00
G01 X3.8411 Y-10.0698 F45.00
G01 X3.8498 Y-10.0744 F45.00
G01 X3.8574 Y-10.0806 F45.00
G01 X3.8636 Y-10.0882 F45.00
G01 X3.8682 Y-10.0969 F45.00
G01 X3.8710 Y-10.1062 F45.00
G01 X3.8720 Y-10.1160 F45.00
G00 X3.8720 Y-10.1160
G01 F30.00
G01 Z-0.6000
G01 F45.00
G01 X3.8710 Y-10.1258 F45.00
G01 X3.8682 Y-10.1351 F45.00
G01 X3.8636 Y-10.1438 F45.00
G01 X3.8574 Y-10.1514 F45.00
G01 X3.8498 Y-10.1576 F45.00
G01 X3.8411 Y-10.1622 F45.00
G01 X3.8318 Y-10.1650 F45.00
G01 X3.8220 Y-10.1660 F45.00
G01 X3.8122 Y-10.1650 F45.00
G01 X3.8029 Y-10.1622 F45.00
G01 X3.7942 Y-10.1576 F45.00
G01 X3.7866 Y-10.1514 F45.00
G01 X3.7804 Y-10.1438 F45.00
G01 X3.7758 Y-10.1351 F45.00
G01 X3.7730 Y-10.1258 F45.00
G01 X3.7720 Y-10.1160 F45.00
G01 X3.7730 Y-10.1062 F45.00
G01 X3.7758 Y-10.0969 F45.00
G01 X3.7804 Y-10.0882 F45.00
G01 X3.7866 Y-10.0806 F45.00
G01 X3.7942 Y-10.0744 F45.00
G01 X3.8029 Y-10.0698 F45.00
G01 X3.8122 Y-10.0670 F45.00
G01 X3.8220 Y-10.0660 F45.00
G01 X3.8318 Y-10.0670 F45.00
G01 X3.8411 Y-10.0698 F45.00
G01 X3.8498 Y-10.0744 F45.00
G01 X3.8574 Y-10.0806 F45.00
G01 X3.8636 Y-10.0882 F45.00
G01 X3.8682 Y-10.0969 F45.00
G01 X3.8710 Y-10.1062 F45.00
G01 X3.8720 Y-10.1160 F45.00
G00 X3.8720 Y-10.1160
G01 F30.00
G01 Z-0.9000
G01 F45.00
G01 X3.8710 Y-10.1258 F45.00
G01 X3.8682 Y-10.1351 F45.00
G01 X3.8636 Y-10.1438 F45.00
G01 X3.8574 Y-10.1514 F45.00
G01 X3.8498 Y-10.1576 F45.00
G01 X3.8411 Y-10.1622 F45.00
G01 X3.8318 Y-10.1650 F45.00
G01 X3.8220 Y-10.1660 F45.00
G01 X3.8122 Y-10.1650 F45.00
G01 X3.8029 Y-10.1622 F45.00
G01 X3.7942 Y-10.1576 F45.00
G01 X3.7866 Y-10.1514 F45.00
G01 X3.7804 Y-10.1438 F45.00
G01 X3.7758 Y-10.1351 F45.00
G01 X3.7730 Y-10.1258 F45.00
G01 X3.7720 Y-10.1160 F45.00
G01 X3.7730 Y-10.1062 F45.00
G01 X3.7758 Y-10.0969 F45.00
G01 X3.7804 Y-10.0882 F45.00
G01 X3.7866 Y-10.0806 F45.00
G01 X3.7942 Y-10.0744 F45.00
G01 X3.8029 Y-10.0698 F45.00
G01 X3.8122 Y-10.0670 F45.00
G01 X3.8220 Y-10.0660 F45.00
G01 X3.8318 Y-10.0670 F45.00
G01 X3.8411 Y-10.0698 F45.00
G01 X3.8498 Y-10.0744 F45.00
G01 X3.8574 Y-10.0806 F45.00
G01 X3.8636 Y-10.0882 F45.00
G01 X3.8682 Y-10.0969 F45.00
G01 X3.8710 Y-10.1062 F45.00
G01 X3.8720 Y-10.1160 F45.00
G00 X3.8720 Y-10.1160
G01 F30.00
G01 Z-1.2000
G01 F45.00
G01 X3.8710 Y-10.1258 F45.00
G01 X3.8682 Y-10.1351 F45.00
G01 X3.8636 Y-10.1438 F45.00
G01 X3.8574 Y-10.1514 F45.00
G01 X3.8498 Y-10.1576 F45.00
G01 X3.8411 Y-10.1622 F45.00
G01 X3.8318 Y-10.1650 F45.00
G01 X3.8220 Y-10.1660 F45.00
G01 X3.8122 Y-10.1650 F45.00
G01 X3.8029 Y-10.1622 F45.00
G01 X3.7942 Y-10.1576 F45.00
G01 X3.7866 Y-10.1514 F45.00
G01 X3.7804 Y-10.1438 F45.00
G01 X3.7758 Y-10.1351 F45.00
G01 X3.7730 Y-10.1258 F45.00
G01 X3.7720 Y-10.1160 F45.00
G01 X3.7730 Y-10.1062 F45.00
G01 X3.7758 Y-10.0969 F45.00
G01 X3.7804 Y-10.0882 F45.00
G01 X3.7866 Y-10.0806 F45.00
G01 X3.7942 Y-10.0744 F45.00
G01 X3.8029 Y-10.0698 F45.00
G01 X3.8122 Y-10.0670 F45.00
G01 X3.8220 Y-10.0660 F45.00
G01 X3.8318 Y-10.0670 F45.00
G01 X3.8411 Y-10.0698 F45.00
G01 X3.8498 Y-10.0744 F45.00
G01 X3.8574 Y-10.0806 F45.00
G01 X3.8636 Y-10.0882 F45.00
G01 X3.8682 Y-10.0969 F45.00
G01 X3.8710 Y-10.1062 F45.00
G01 X3.8720 Y-10.1160 F45.00
G00 X3.8720 Y-10.1160
G01 F30.00
G01 Z-1.5000
G01 F45.00
G01 X3.8710 Y-10.1258 F45.00
G01 X3.8682 Y-10.1351 F45.00
G01 X3.8636 Y-10.1438 F45.00
G01 X3.8574 Y-10.1514 F45.00
G01 X3.8498 Y-10.1576 F45.00
G01 X3.8411 Y-10.1622 F45.00
G01 X3.8318 Y-10.1650 F45.00
G01 X3.8220 Y-10.1660 F45.00
G01 X3.8122 Y-10.1650 F45.00
G01 X3.8029 Y-10.1622 F45.00
G01 X3.7942 Y-10.1576 F45.00
G01 X3.7866 Y-10.1514 F45.00
G01 X3.7804 Y-10.1438 F45.00
G01 X3.7758 Y-10.1351 F45.00
G01 X3.7730 Y-10.1258 F45.00
G01 X3.7720 Y-10.1160 F45.00
G01 X3.7730 Y-10.1062 F45.00
G01 X3.7758 Y-10.0969 F45.00
G01 X3.7804 Y-10.0882 F45.00
G01 X3.7866 Y-10.0806 F45.00
G01 X3.7942 Y-10.0744 F45.00
G01 X3.8029 Y-10.0698 F45.00
G01 X3.8122 Y-10.0670 F45.00
G01 X3.8220 Y-10.0660 F45.00
G01 X3.8318 Y-10.0670 F45.00
G01 X3.8411 Y-10.0698 F45.00
G01 X3.8498 Y-10.0744 F45.00
G01 X3.8574 Y-10.0806 F45.00
G01 X3.8636 Y-10.0882 F45.00
G01 X3.8682 Y-10.0969 F45.00
G01 X3.8710 Y-10.1062 F45.00
G01 X3.8720 Y-10.1160 F45.00
G00 X3.8720 Y-10.1160
G01 F30.00
G01 Z-1.8000
G01 F45.00
G01 X3.8710 Y-10.1258 F45.00
G01 X3.8682 Y-10.1351 F45.00
G01 X3.8636 Y-10.1438 F45.00
G01 X3.8574 Y-10.1514 F45.00
G01 X3.8498 Y-10.1576 F45.00
G01 X3.8411 Y-10.1622 F45.00
G01 X3.8318 Y-10.1650 F45.00
G01 X3.8220 Y-10.1660 F45.00
G01 X3.8122 Y-10.1650 F45.00
G01 X3.8029 Y-10.1622 F45.00
G01 X3.7942 Y-10.1576 F45.00
G01 X3.7866 Y-10.1514 F45.00
G01 X3.7804 Y-10.1438 F45.00
G01 X3.7758 Y-10.1351 F45.00
G01 X3.7730 Y-10.1258 F45.00
G01 X3.7720 Y-10.1160 F45.00
G01 X3.7730 Y-10.1062 F45.00
G01 X3.7758 Y-10.0969 F45.00
G01 X3.7804 Y-10.0882 F45.00
G01 X3.7866 Y-10.0806 F45.00
G01 X3.7942 Y-10.0744 F45.00
G01 X3.8029 Y-10.0698 F45.00
G01 X3.8122 Y-10.0670 F45.00
G01 X3.8220 Y-10.0660 F45.00
G01 X3.8318 Y-10.0670 F45.00
G01 X3.8411 Y-10.0698 F45.00
G01 X3.8498 Y-10.0744 F45.00
G01 X3.8574 Y-10.0806 F45.00
G01 X3.8636 Y-10.0882 F45.00
G01 X3.8682 Y-10.0969 F45.00
G01 X3.8710 Y-10.1062 F45.00
G01 X3.8720 Y-10.1160 F45.00
G00 Z2.0000
G00 X3.8720 Y-14.7160
G01 F30.00
G01 Z-0.3000
G01 F45.00
G01 X3.8710 Y-14.7258 F45.00
G01 X3.8682 Y-14.7351 F45.00
G01 X3.8636 Y-14.7438 F45.00
G01 X3.8574 Y-14.7514 F45.00
G01 X3.8498 Y-14.7576 F45.00
G01 X3.8411 Y-14.7622 F45.00
G01 X3.8318 Y-14.7650 F45.00
G01 X3.8220 Y-14.7660 F45.00
G01 X3.8122 Y-14.7650 F45.00
G01 X3.8029 Y-14.7622 F45.00
G01 X3.7942 Y-14.7576 F45.00
G01 X3.7866 Y-14.7514 F45.00
G01 X3.7804 Y-14.7438 F45.00
G01 X3.7758 Y-14.7351 F45.00
G01 X3.7730 Y-14.7258 F45.00
G01 X3.7720 Y-14.7160 F45.00
G01 X3.7730 Y-14.7062 F45.00
G01 X3.7758 Y-14.6969 F45.00
G01 X3.7804 Y-14.6882 F45.00
G01 X3.7866 Y-14.6806 F45.00
G01 X3.7942 Y-14.6744 F45.00
G01 X3.8029 Y-14.6698 F45.00
G01 X3.8122 Y-14.6670 F45.00
G01 X3.8220 Y-14.6660 F45.00
G01 X3.8318 Y-14.6670 F45.00
G01 X3.8411 Y-14.6698 F45.00
G01 X3.8498 Y-14.6744 F45.00
G01 X3.8574 Y-14.6806 F45.00
G01 X3.8636 Y-14.6882 F45.00
G01 X3.8682 Y-14.6969 F45.00
G01 X3.8710 Y-14.7062 F45.00
G01 X3.8720 Y-14.7160 F45.00
G00 X3.8720 Y-14.7160
G01 F30.00
G01 Z-0.6000
G01 F45.00
G01 X3.8710 Y-14.7258 F45.00
G01 X3.8682 Y-14.7351 F45.00
G01 X3.8636 Y-14.7438 F45.00
G01 X3.8574 Y-14.7514 F45.00
G01 X3.8498 Y-14.7576 F45.00
G01 X3.8411 Y-14.7622 F45.00
G01 X3.8318 Y-14.7650 F45.00
G01 X3.8220 Y-14.7660 F45.00
G01 X3.8122 Y-14.7650 F45.00
G01 X3.8029 Y-14.7622 F45.00
G01 X3.7942 Y-14.7576 F45.00
G01 X3.7866 Y-14.7514 F45.00
G01 X3.7804 Y-14.7438 F45.00
G01 X3.7758 Y-14.7351 F45.00
G01 X3.7730 Y-14.7258 F45.00
G01 X3.7720 Y-14.7160 F45.00
G01 X3.7730 Y-14.7062 F45.00
G01 X3.7758 Y-14.6969 F45.00
G01 X3.7804 Y-14.6882 F45.00
G01 X3.7866 Y-14.6806 F45.00
G01 X3.7942 Y-14.6744 F45.00
G01 X3.8029 Y-14.6698 F45.00
G01 X3.8122 Y-14.6670 F45.00
G01 X3.8220 Y-14.6660 F45.00
G01 X3.8318 Y-14.6670 F45.00
G01 X3.8411 Y-14.6698 F45.00
G01 X3.8498 Y-14.6744 F45.00
G01 X3.8574 Y-14.6806 F45.00
G01 X3.8636 Y-14.6882 F45.00
G01 X3.8682 Y-14.6969 F45.00
G01 X3.8710 Y-14.7062 F45.00
G01 X3.8720 Y-14.7160 F45.00
G00 X3.8720 Y-14.7160
G01 F30.00
G01 Z-0.9000
G01 F45.00
G01 X3.8710 Y-14.7258 F45.00
G01 X3.8682 Y-14.7351 F45.00
G01 X3.8636 Y-14.7438 F45.00
G01 X3.8574 Y-14.7514 F45.00
G01 X3.8498 Y-14.7576 F45.00
G01 X3.8411 Y-14.7622 F45.00
G01 X3.8318 Y-14.7650 F45.00
G01 X3.8220 Y-14.7660 F45.00
G01 X3.8122 Y-14.7650 F45.00
G01 X3.8029 Y-14.7622 F45.00
G01 X3.7942 Y-14.7576 F45.00
G01 X3.7866 Y-14.7514 F45.00
G01 X3.7804 Y-14.7438 F45.00
G01 X3.7758 Y-14.7351 F45.00
G01 X3.7730 Y-14.7258 F45.00
G01 X3.7720 Y-14.7160 F45.00
G01 X3.7730 Y-14.7062 F45.00
G01 X3.7758 Y-14.6969 F45.00
G01 X3.7804 Y-14.6882 F45.00
G01 X3.7866 Y-14.6806 F45.00
G01 X3.7942 Y-14.6744 F45.00
G01 X3.8029 Y-14.6698 F45.00
G01 X3.8122 Y-14.6670 F45.00
G01 X3.8220 Y-14.6660 F45.00
G01 X3.8318 Y-14.6670 F45.00
G01 X3.8411 Y-14.6698 F45.00
G01 X3.8498 Y-14.6744 F45.00
G01 X3.8574 Y-14.6806 F45.00
G01 X3.8636 Y-14.6882 F45.00
G01 X3.8682 Y-14.6969 F45.00
G01 X3.8710 Y-14.7062 F45.00
G01 X3.8720 Y-14.7160 F45.00
G00 X3.8720 Y-14.7160
G01 F30.00
G01 Z-1.2000
G01 F45.00
G01 X3.8710 Y-14.7258 F45.00
G01 X3.8682 Y-14.7351 F45.00
G01 X3.8636 Y-14.7438 F45.00
G01 X3.8574 Y-14.7514 F45.00
G01 X3.8498 Y-14.7576 F45.00
G01 X3.8411 Y-14.7622 F45.00
G01 X3.8318 Y-14.7650 F45.00
G01 X3.8220 Y-14.7660 F45.00
G01 X3.8122 Y-14.7650 F45.00
G01 X3.8029 Y-14.7622 F45.00
G01 X3.7942 Y-14.7576 F45.00
G01 X3.7866 Y-14.7514 F45.00
G01 X3.7804 Y-14.7438 F45.00
G01 X3.7758 Y-14.7351 F45.00
G01 X3.7730 Y-14.7258 F45.00
G01 X3.7720 Y-14.7160 F45.00
G01 X3.7730 Y-14.7062 F45.00
G01 X3.7758 Y-14.6969 F45.00
G01 X3.7804 Y-14.6882 F45.00
G01 X3.7866 Y-14.6806 F45.00
G01 X3.7942 Y-14.6744 F45.00
G01 X3.8029 Y-14.6698 F45.00
G01 X3.8122 Y-14.6670 F45.00
G01 X3.8220 Y-14.6660 F45.00
G01 X3.8318 Y-14.6670 F45.00
G01 X3.8411 Y-14.6698 F45.00
G01 X3.8498 Y-14.6744 F45.00
G01 X3.8574 Y-14.6806 F45.00
G01 X3.8636 Y-14.6882 F45.00
G01 X3.8682 Y-14.6969 F45.00
G01 X3.8710 Y-14.7062 F45.00
G01 X3.8720 Y-14.7160 F45.00
G00 X3.8720 Y-14.7160
G01 F30.00
G01 Z-1.5000
G01 F45.00
G01 X3.8710 Y-14.7258 F45.00
G01 X3.8682 Y-14.7351 F45.00
G01 X3.8636 Y-14.7438 F45.00
G01 X3.8574 Y-14.7514 F45.00
G01 X3.8498 Y-14.7576 F45.00
G01 X3.8411 Y-14.7622 F45.00
G01 X3.8318 Y-14.7650 F45.00
G01 X3.8220 Y-14.7660 F45.00
G01 X3.8122 Y-14.7650 F45.00
G01 X3.8029 Y-14.7622 F45.00
G01 X3.7942 Y-14.7576 F45.00
G01 X3.7866 Y-14.7514 F45.00
G01 X3.7804 Y-14.7438 F45.00
G01 X3.7758 Y-14.7351 F45.00
G01 X3.7730 Y-14.7258 F45.00
G01 X3.7720 Y-14.7160 F45.00
G01 X3.7730 Y-14.7062 F45.00
G01 X3.7758 Y-14.6969 F45.00
G01 X3.7804 Y-14.6882 F45.00
G01 X3.7866 Y-14.6806 F45.00
G01 X3.7942 Y-14.6744 F45.00
G01 X3.8029 Y-14.6698 F45.00
G01 X3.8122 Y-14.6670 F45.00
G01 X3.8220 Y-14.6660 F45.00
G01 X3.8318 Y-14.6670 F45.00
G01 X3.8411 Y-14.6698 F45.00
G01 X3.8498 Y-14.6744 F45.00
G01 X3.8574 Y-14.6806 F45.00
G01 X3.8636 Y-14.6882 F45.00
G01 X3.8682 Y-14.6969 F45.00
G01 X3.8710 Y-14.7062 F45.00
G01 X3.8720 Y-14.7160 F45.00
G00 X3.8720 Y-14.7160
G01 F30.00
G01 Z-1.8000
G01 F45.00
G01 X3.8710 Y-14.7258 F45.00
G01 X3.8682 Y-14.7351 F45.00
G01 X3.8636 Y-14.7438 F45.00
G01 X3.8574 Y-14.7514 F45.00
G01 X3.8498 Y-14.7576 F45.00
G01 X3.8411 Y-14.7622 F45.00
G01 X3.8318 Y-14.7650 F45.00
G01 X3.8220 Y-14.7660 F45.00
G01 X3.8122 Y-14.7650 F45.00
G01 X3.8029 Y-14.7622 F45.00
G01 X3.7942 Y-14.7576 F45.00
G01 X3.7866 Y-14.7514 F45.00
G01 X3.7804 Y-14.7438 F45.00
G01 X3.7758 Y-14.7351 F45.00
G01 X3.7730 Y-14.7258 F45.00
G01 X3.7720 Y-14.7160 F45.00
G01 X3.7730 Y-14.7062 F45.00
G01 X3.7758 Y-14.6969 F45.00
G01 X3.7804 Y-14.6882 F45.00
G01 X3.7866 Y-14.6806 F45.00
G01 X3.7942 Y-14.6744 F45.00
G01 X3.8029 Y-14.6698 F45.00
G01 X3.8122 Y-14.6670 F45.00
G01 X3.8220 Y-14.6660 F45.00
G01 X3.8318 Y-14.6670 F45.00
G01 X3.8411 Y-14.6698 F45.00
G01 X3.8498 Y-14.6744 F45.00
G01 X3.8574 Y-14.6806 F45.00
G01 X3.8636 Y-14.6882 F45.00
G01 X3.8682 Y-14.6969 F45.00
G01 X3.8710 Y-14.7062 F45.00
G01 X3.8720 Y-14.7160 F45.00
G00 Z2.0000
G00 X4.2760 Y-21.8140
G01 F30.00
G01 Z-0.3000
G01 F45.00
G01 X4.2724 Y-21.8875 F45.00
G01 X4.2616 Y-21.9603 F45.00
G01 X4.2437 Y-22.0317 F45.00
G01 X4.2189 Y-22.1010 F45.00
G01 X4.1874 Y-22.1675 F45.00
G01 X4.1496 Y-22.2307 F45.00
G01 X4.1058 Y-22.2898 F45.00
G01 X4.0563 Y-22.3443 F45.00
G01 X4.0018 Y-22.3938 F45.00
G01 X3.9427 Y-22.4376 F45.00
G01 X3.8795 Y-22.4754 F45.00
G01 X3.8130 Y-22.5069 F45.00
G01 X3.7437 Y-22.5317 F45.00
G01 X3.6723 Y-22.5496 F45.00
G01 X3.5995 Y-22.5604 F45.00
G01 X3.5260 Y-22.5640 F45.00
G01 X3.4525 Y-22.5604 F45.00
G01 X3.3797 Y-22.5496 F45.00
G01 X3.3083 Y-22.5317 F45.00
G01 X3.2390 Y-22.5069 F45.00
G01 X3.1725 Y-22.4754 F45.00
G01 X3.1093 Y-22.4376 F45.00
G01 X3.0502 Y-22.3938 F45.00
G01 X2.9957 Y-22.3443 F45.00
G01 X2.9462 Y-22.2898 F45.00
G01 X2.9024 Y-22.2307 F45.00
G01 X2.8646 Y-22.1675 F45.00
G01 X2.8331 Y-22.1010 F45.00
G01 X2.8083 Y-22.0317 F45.00
G01 X2.7904 Y-21.9603 F45.00
G01 X2.7796 Y-21.8875 F45.00
G01 X2.7760 Y-21.8140 F45.00
G01 X2.7796 Y-21.7405 F45.00
G01 X2.7904 Y-21.6677 F45.00
G01 X2.8083 Y-21.5963 F45.00
G01 X2.8331 Y-21.5270 F45.00
G01 X2.8646 Y-21.4605 F45.00
G01 X2.9024 Y-21.3973 F45.00
G01 X2.9462 Y-21.3382 F45.00
G01 X2.9957 Y-21.2837 F45.00
G01 X3.0502 Y-21.2342 F45.00
G01 X3.1093 Y-21.1904 F45.00
G01 X3.1725 Y-21.1526 F45.00
G01 X3.2390 Y-21.1211 F45.00
G01 X3.3083 Y-21.0963 F45.00
G01 X3.3797 Y-21.0784 F45.00
G01 X3.4525 Y-21.0676 F45.00
G01 X3.5260 Y-21.0640 F45.00
G01 X3.5995 Y-21.0676 F45.00
G01 X3.6723 Y-21.0784 F45.00
G01 X3.7437 Y-21.0963 F45.00
G01 X3.8130 Y-21.1211 F45.00
G01 X3.8795 Y-21.1526 F45.00
G01 X3.9427 Y-21.1904 F45.00
G01 X4.0018 Y-21.2342 F45.00
G01 X4.0563 Y-21.2837 F45.00
G01 X4.1058 Y-21.3382 F45.00
G01 X4.1496 Y-21.3973 F45.00
G01 X4.1874 Y-21.4605 F45.00
G01 X4.2189 Y-21.5270 F45.00
G01 X4.2437 Y-21.5963 F45.00
G01 X4.2616 Y-21.6677 F45.00
G01 X4.2724 Y-21.7405 F45.00
G01 X4.2760 Y-21.8140 F45.00
G00 X4.2760 Y-21.8140
G01 F30.00
G01 Z-0.6000
G01 F45.00
G01 X4.2724 Y-21.8875 F45.00
G01 X4.2616 Y-21.9603 F45.00
G01 X4.2437 Y-22.0317 F45.00
G01 X4.2189 Y-22.1010 F45.00
G01 X4.1874 Y-22.1675 F45.00
G01 X4.1496 Y-22.2307 F45.00
G01 X4.1058 Y-22.2898 F45.00
G01 X4.0563 Y-22.3443 F45.00
G01 X4.0018 Y-22.3938 F45.00
G01 X3.9427 Y-22.4376 F45.00
G01 X3.8795 Y-22.4754 F45.00
G01 X3.8130 Y-22.5069 F45.00
G01 X3.7437 Y-22.5317 F45.00
G01 X3.6723 Y-22.5496 F45.00
G01 X3.5995 Y-22.5604 F45.00
G01 X3.5260 Y-22.5640 F45.00
G01 X3.4525 Y-22.5604 F45.00
G01 X3.3797 Y-22.5496 F45.00
G01 X3.3083 Y-22.5317 F45.00
G01 X3.2390 Y-22.5069 F45.00
G01 X3.1725 Y-22.4754 F45.00
G01 X3.1093 Y-22.4376 F45.00
G01 X3.0502 Y-22.3938 F45.00
G01 X2.9957 Y-22.3443 F45.00
G01 X2.9462 Y-22.2898 F45.00
G01 X2.9024 Y-22.2307 F45.00
G01 X2.8646 Y-22.1675 F45.00
G01 X2.8331 Y-22.1010 F45.00
G01 X2.8083 Y-22.0317 F45.00
G01 X2.7904 Y-21.9603 F45.00
G01 X2.7796 Y-21.8875 F45.00
G01 X2.7760 Y-21.8140 F45.00
G01 X2.7796 Y-21.7405 F45.00
G01 X2.7904 Y-21.6677 F45.00
G01 X2.8083 Y-21.5963 F45.00
G01 X2.8331 Y-21.5270 F45.00
G01 X2.8646 Y-21.4605 F45.00
G01 X2.9024 Y-21.3973 F45.00
G01 X2.9462 Y-21.3382 F45.00
G01 X2.9957 Y-21.2837 F45.00
G01 X3.0502 Y-21.2342 F45.00
G01 X3.1093 Y-21.1904 F45.00
G01 X3.1725 Y-21.1526 F45.00
G01 X3.2390 Y-21.1211 F45.00
G01 X3.3083 Y-21.0963 F45.00
G01 X3.3797 Y-21.0784 F45.00
G01 X3.4525 Y-21.0676 F45.00
G01 X3.5260 Y-21.0640 F45.00
G01 X3.5995 Y-21.0676 F45.00
G01 X3.6723 Y-21.0784 F45.00
G01 X3.7437 Y-21.0963 F45.00
G01 X3.8130 Y-21.1211 F45.00
G01 X3.8795 Y-21.1526 F45.00
G01 X3.9427 Y-21.1904 F45.00
G01 X4.0018 Y-21.2342 F45.00
G01 X4.0563 Y-21.2837 F45.00
G01 X4.1058 Y-21.3382 F45.00
G01 X4.1496 Y-21.3973 F45.00
G01 X4.1874 Y-21.4605 F45.00
G01 X4.2189 Y-21.5270 F45.00
G01 X4.2437 Y-21.5963 F45.00
G01 X4.2616 Y-21.6677 F45.00
G01 X4.2724 Y-21.7405 F45.00
G01 X4.2760 Y-21.8140 F45.00
G00 X4.2760 Y-21.8140
G01 F30.00
G01 Z-0.9000
G01 F45.00
G01 X4.2724 Y-21.8875 F45.00
G01 X4.2616 Y-21.9603 F45.00
G01 X4.2437 Y-22.0317 F45.00
G01 X4.2189 Y-22.1010 F45.00
G01 X4.1874 Y-22.1675 F45.00
G01 X4.1496 Y-22.2307 F45.00
G01 X4.1058 Y-22.2898 F45.00
G01 X4.0563 Y-22.3443 F45.00
G01 X4.0018 Y-22.3938 F45.00
G01 X3.9427 Y-22.4376 F45.00
G01 X3.8795 Y-22.4754 F45.00
G01 X3.8130 Y-22.5069 F45.00
G01 X3.7437 Y-22.5317 F45.00
G01 X3.6723 Y-22.5496 F45.00
G01 X3.5995 Y-22.5604 F45.00
G01 X3.5260 Y-22.5640 F45.00
G01 X3.4525 Y-22.5604 F45.00
G01 X3.3797 Y-22.5496 F45.00
G01 X3.3083 Y-22.5317 F45.00
G01 X3.2390 Y-22.5069 F45.00
G01 X3.1725 Y-22.4754 F45.00
G01 X3.1093 Y-22.4376 F45.00
G01 X3.0502 Y-22.3938 F45.00
G01 X2.9957 Y-22.3443 F45.00
G01 X2.9462 Y-22.2898 F45.00
G01 X2.9024 Y-22.2307 F45.00
G01 X2.8646 Y-22.1675 F45.00
G01 X2.8331 Y-22.1010 F45.00
G01 X2.8083 Y-22.0317 F45.00
G01 X2.7904 Y-21.9603 F45.00
G01 X2.7796 Y-21.8875 F45.00
G01 X2.7760 Y-21.8140 F45.00
G01 X2.7796 Y-21.7405 F45.00
G01 X2.7904 Y-21.6677 F45.00
G01 X2.8083 Y-21.5963 F45.00
G01 X2.8331 Y-21.5270 F45.00
G01 X2.8646 Y-21.4605 F45.00
G01 X2.9024 Y-21.3973 F45.00
G01 X2.9462 Y-21.3382 F45.00
G01 X2.9957 Y-21.2837 F45.00
G01 X3.0502 Y-21.2342 F45.00
G01 X3.1093 Y-21.1904 F45.00
G01 X3.1725 Y-21.1526 F45.00
G01 X3.2390 Y-21.1211 F45.00
G01 X3.3083 Y-21.0963 F45.00
G01 X3.3797 Y-21.0784 F45.00
G01 X3.4525 Y-21.0676 F45.00
G01 X3.5260 Y-21.0640 F45.00
G01 X3.5995 Y-21.0676 F45.00
G01 X3.6723 Y-21.0784 F45.00
G01 X3.7437 Y-21.0963 F45.00
G01 X3.8130 Y-21.1211 F45.00
G01 X3.8795 Y-21.1526 F45.00
G01 X3.9427 Y-21.1904 F45.00
G01 X4.0018 Y-21.2342 F45.00
G01 X4.0563 Y-21.2837 F45.00
G01 X4.1058 Y-21.3382 F45.00
G01 X4.1496 Y-21.3973 F45.00
G01 X4.1874 Y-21.4605 F45.00
G01 X4.2189 Y-21.5270 F45.00
G01 X4.2437 Y-21.5963 F45.00
G01 X4.2616 Y-21.6677 F45.00
G01 X4.2724 Y-21.7405 F45.00
G01 X4.2760 Y-21.8140 F45.00
G00 X4.2760 Y-21.8140
G01 F30.00
G01 Z-1.2000
G01 F45.00
G01 X4.2724 Y-21.8875 F45.00
G01 X4.2616 Y-21.9603 F45.00
G01 X4.2437 Y-22.0317 F45.00
G01 X4.2189 Y-22.1010 F45.00
G01 X4.1874 Y-22.1675 F45.00
G01 X4.1496 Y-22.2307 F45.00
G01 X4.1058 Y-22.2898 F45.00
G01 X4.0563 Y-22.3443 F45.00
G01 X4.0018 Y-22.3938 F45.00
G01 X3.9427 Y-22.4376 F45.00
G01 X3.8795 Y-22.4754 F45.00
G01 X3.8130 Y-22.5069 F45.00
G01 X3.7437 Y-22.5317 F45.00
G01 X3.6723 Y-22.5496 F45.00
G01 X3.5995 Y-22.5604 F45.00
G01 X3.5260 Y-22.5640 F45.00
G01 X3.4525 Y-22.5604 F45.00
G01 X3.3797 Y-22.5496 F45.00
G01 X3.3083 Y-22.5317 F45.00
G01 X3.2390 Y-22.5069 F45.00
G01 X3.1725 Y-22.4754 F45.00
G01 X3.1093 Y-22.4376 F45.00
G01 X3.0502 Y-22.3938 F45.00
G01 X2.9957 Y-22.3443 F45.00
G01 X2.9462 Y-22.2898 F45.00
G01 X2.9024 Y-22.2307 F45.00
G01 X2.8646 Y-22.1675 F45.00
G01 X2.8331 Y-22.1010 F45.00
G01 X2.8083 Y-22.0317 F45.00
G01 X2.7904 Y-21.9603 F45.00
G01 X2.7796 Y-21.8875 F45.00
G01 X2.7760 Y-21.8140 F45.00
G01 X2.7796 Y-21.7405 F45.00
G01 X2.7904 Y-21.6677 F45.00
G01 X2.8083 Y-21.5963 F45.00
G01 X2.8331 Y-21.5270 F45.00
G01 X2.8646 Y-21.4605 F45.00
G01 X2.9024 Y-21.3973 F45.00
G01 X2.9462 Y-21.3382 F45.00
G01 X2.9957 Y-21.2837 F45.00
G01 X3.0502 Y-21.2342 F45.00
G01 X3.1093 Y-21.1904 F45.00
G01 X3.1725 Y-21.1526 F45.00
G01 X3.2390 Y-21.1211 F45.00
G01 X3.3083 Y-21.0963 F45.00
G01 X3.3797 Y-21.0784 F45.00
G01 X3.4525 Y-21.0676 F45.00
G01 X3.5260 Y-21.0640 F45.00
G01 X3.5995 Y-21.0676 F45.00
G01 X3.6723 Y-21.0784 F45.00
G01 X3.7437 Y-21.0963 F45.00
G01 X3.8130 Y-21.1211 F45.00
G01 X3.8795 Y-21.1526 F45.00
G01 X3.9427 Y-21.1904 F45.00
G01 X4.0018 Y-21.2342 F45.00
G01 X4.0563 Y-21.2837 F45.00
G01 X4.1058 Y-21.3382 F45.00
G01 X4.1496 Y-21.3973 F45.00
G01 X4.1874 Y-21.4605 F45.00
G01 X4.2189 Y-21.5270 F45.00
G01 X4.2437 Y-21.5963 F45.00
G01 X4.2616 Y-21.6677 F45.00
G01 X4.2724 Y-21.7405 F45.00
G01 X4.2760 Y-21.8140 F45.00
G00 X4.2760 Y-21.8140
G01 F30.00
G01 Z-1.5000
G01 F45.00
G01 X4.2724 Y-21.8875 F45.00
G01 X4.2616 Y-21.9603 F45.00
G01 X4.2437 Y-22.0317 F45.00
G01 X4.2189 Y-22.1010 F45.00
G01 X4.1874 Y-22.1675 F45.00
G01 X4.1496 Y-22.2307 F45.00
G01 X4.1058 Y-22.2898 F45.00
G01 X4.0563 Y-22.3443 F45.00
G01 X4.0018 Y-22.3938 F45.00
G01 X3.9427 Y-22.4376 F45.00
G01 X3.8795 Y-22.4754 F45.00
G01 X3.8130 Y-22.5069 F45.00
G01 X3.7437 Y-22.5317 F45.00
G01 X3.6723 Y-22.5496 F45.00
G01 X3.5995 Y-22.5604 F45.00
G01 X3.5260 Y-22.5640 F45.00
G01 X3.4525 Y-22.5604 F45.00
G01 X3.3797 Y-22.5496 F45.00
G01 X3.3083 Y-22.5317 F45.00
G01 X3.2390 Y-22.5069 F45.00
G01 X3.1725 Y-22.4754 F45.00
G01 X3.1093 Y-22.4376 F45.00
G01 X3.0502 Y-22.3938 F45.00
G01 X2.9957 Y-22.3443 F45.00
G01 X2.9462 Y-22.2898 F45.00
G01 X2.9024 Y-22.2307 F45.00
G01 X2.8646 Y-22.1675 F45.00
G01 X2.8331 Y-22.1010 F45.00
G01 X2.8083 Y-22.0317 F45.00
G01 X2.7904 Y-21.9603 F45.00
G01 X2.7796 Y-21.8875 F45.00
G01 X2.7760 Y-21.8140 F45.00
G01 X2.7796 Y-21.7405 F45.00
G01 X2.7904 Y-21.6677 F45.00
G01 X2.8083 Y-21.5963 F45.00
G01 X2.8331 Y-21.5270 F45.00
G01 X2.8646 Y-21.4605 F45.00
G01 X2.9024 Y-21.3973 F45.00
G01 X2.9462 Y-21.3382 F45.00
G01 X2.9957 Y-21.2837 F45.00
G01 X3.0502 Y-21.2342 F45.00
G01 X3.1093 Y-21.1904 F45.00
G01 X3.1725 Y-21.1526 F45.00
G01 X3.2390 Y-21.1211 F45.00
G01 X3.3083 Y-21.0963 F45.00
G01 X3.3797 Y-21.0784 F45.00
G01 X3.4525 Y-21.0676 F45.00
G01 X3.5260 Y-21.0640 F45.00
G01 X3.5995 Y-21.0676 F45.00
G01 X3.6723 Y-21.0784 F45.00
G01 X3.7437 Y-21.0963 F45.00
G01 X3.8130 Y-21.1211 F45.00
G01 X3.8795 Y-21.1526 F45.00
G01 X3.9427 Y-21.1904 F45.00
G01 X4.0018 Y-21.2342 F45.00
G01 X4.0563 Y-21.2837 F45.00
G01 X4.1058 Y-21.3382 F45.00
G01 X4.1496 Y-21.3973 F45.00
G01 X4.1874 Y-21.4605 F45.00
G01 X4.2189 Y-21.5270 F45.00
G01 X4.2437 Y-21.5963 F45.00
G01 X4.2616 Y-21.6677 F45.00
G01 X4.2724 Y-21.7405 F45.00
G01 X4.2760 Y-21.8140 F45.00
G00 X4.2760 Y-21.8140
G01 F30.00
G01 Z-1.8000
G01 F45.00
G01 X4.2724 Y-21.8875 F45.00
G01 X4.2616 Y-21.9603 F45.00
G01 X4.2437 Y-22.0317 F45.00
G01 X4.2189 Y-22.1010 F45.00
G01 X4.1874 Y-22.1675 F45.00
G01 X4.1496 Y-22.2307 F45.00
G01 X4.1058 Y-22.2898 F45.00
G01 X4.0563 Y-22.3443 F45.00
G01 X4.0018 Y-22.3938 F45.00
G01 X3.9427 Y-22.4376 F45.00
G01 X3.8795 Y-22.4754 F45.00
G01 X3.8130 Y-22.5069 F45.00
G01 X3.7437 Y-22.5317 F45.00
G01 X3.6723 Y-22.5496 F45.00
G01 X3.5995 Y-22.5604 F45.00
G01 X3.5260 Y-22.5640 F45.00
G01 X3.4525 Y-22.5604 F45.00
G01 X3.3797 Y-22.5496 F45.00
G01 X3.3083 Y-22.5317 F45.00
G01 X3.2390 Y-22.5069 F45.00
G01 X3.1725 Y-22.4754 F45.00
G01 X3.1093 Y-22.4376 F45.00
G01 X3.0502 Y-22.3938 F45.00
G01 X2.9957 Y-22.3443 F45.00
G01 X2.9462 Y-22.2898 F45.00
G01 X2.9024 Y-22.2307 F45.00
G01 X2.8646 Y-22.1675 F45.00
G01 X2.8331 Y-22.1010 F45.00
G01 X2.8083 Y-22.0317 F45.00
G01 X2.7904 Y-21.9603 F45.00
G01 X2.7796 Y-21.8875 F45.00
G01 X2.7760 Y-21.8140 F45.00
G01 X2.7796 Y-21.7405 F45.00
G01 X2.7904 Y-21.6677 F45.00
G01 X2.8083 Y-21.5963 F45.00
G01 X2.8331 Y-21.5270 F45.00
G01 X2.8646 Y-21.4605 F45.00
G01 X2.9024 Y-21.3973 F45.00
G01 X2.9462 Y-21.3382 F45.00
G01 X2.9957 Y-21.2837 F45.00
G01 X3.0502 Y-21.2342 F45.00
G01 X3.1093 Y-21.1904 F45.00
G01 X3.1725 Y-21.1526 F45.00
G01 X3.2390 Y-21.1211 F45.00
G01 X3.3083 Y-21.0963 F45.00
G01 X3.3797 Y-21.0784 F45.00
G01 X3.4525 Y-21.0676 F45.00
G01 X3.5260 Y-21.0640 F45.00
G01 X3.5995 Y-21.0676 F45.00
G01 X3.6723 Y-21.0784 F45.00
G01 X3.7437 Y-21.0963 F45.00
G01 X3.8130 Y-21.1211 F45.00
G01 X3.8795 Y-21.1526 F45.00
G01 X3.9427 Y-21.1904 F45.00
G01 X4.0018 Y-21.2342 F45.00
G01 X4.0563 Y-21.2837 F45.00
G01 X4.1058 Y-21.3382 F45.00
G01 X4.1496 Y-21.3973 F45.00
G01 X4.1874 Y-21.4605 F45.00
G01 X4.2189 Y-21.5270 F45.00
G01 X4.2437 Y-21.5963 F45.00
G01 X4.2616 Y-21.6677 F45.00
G01 X4.2724 Y-21.7405 F45.00
G01 X4.2760 Y-21.8140 F45.00
G00 Z2.0000
G00 X32.9780 Y-14.4480
G01 F30.00
G01 Z-0.3000
G01 F45.00
G01 X32.9744 Y-14.5215 F45.00
G01 X32.9636 Y-14.5943 F45.00
G01 X32.9457 Y-14.6657 F45.00
G01 X32.9209 Y-14.7350 F45.00
G01 X32.8894 Y-14.8015 F45.00
G01 X32.8516 Y-14.8647 F45.00
G01 X32.8078 Y-14.9238 F45.00
G01 X32.7583 Y-14.9783 F45.00
G01 X32.7038 Y-15.0278 F45.00
G01 X32.6447 Y-15.0716 F45.00
G01 X32.5815 Y-15.1094 F45.00
G01 X32.5150 Y-15.1409 F45.00
G01 X32.4457 Y-15.1657 F45.00
G01 X32.3743 Y-15.1836 F45.00
G01 X32.3015 Y-15.1944 F45.00
G01 X32.2280 Y-15.1980 F45.00
G01 X32.1545 Y-15.1944 F45.00
G01 X32.0817 Y-15.1836 F45.00
G01 X32.0103 Y-15.1657 F45.00
G01 X31.9410 Y-15.1409 F45.00
G01 X31.8745 Y-15.1094 F45.00
G01 X31.8113 Y-15.0716 F45.00
G01 X31.7522 Y-15.0278 F45.00
G01 X31.6977 Y-14.9783 F45.00
G01 X31.6482 Y-14.9238 F45.00
G01 X31.6044 Y-14.8647 F45.00
G01 X31.5666 Y-14.8015 F45.00
G01 X31.5351 Y-14.7350 F45.00
G01 X31.5103 Y-14.6657 F45.00
G01 X31.4924 Y-14.5943 F45.00
G01 X31.4816 Y-14.5215 F45.00
G01 X31.4780 Y-14.4480 F45.00
G01 X31.4816 Y-14.3745 F45.00
G01 X31.4924 Y-14.3017 F45.00
G01 X31.5103 Y-14.2303 F45.00
G01 X31.5351 Y-14.1610 F45.00
G01 X31.5666 Y-14.0945 F45.00
G01 X31.6044 Y-14.0313 F45.00
G01 X31.6482 Y-13.9722 F45.00
G01 X31.6977 Y-13.9177 F45.00
G01 X31.7522 Y-13.8682 F45.00
G01 X31.8113 Y-13.8244 F45.00
G01 X31.8745 Y-13.7866 F45.00
G01 X31.9410 Y-13.7551 F45.00
G01 X32.0103 Y-13.7303 F45.00
G01 X32.0817 Y-13.7124 F45.00
G01 X32.1545 Y-13.7016 F45.00
G01 X32.2280 Y-13.6980 F45.00
G01 X32.3015 Y-13.7016 F45.00
G01 X32.3743 Y-13.7124 F45.00
G01 X32.4457 Y-13.7303 F45.00
G01 X32.5150 Y-13.7551 F45.00
G01 X32.5815 Y-13.7866 F45.00
G01 X32.6447 Y-13.8244 F45.00
G01 X32.7038 Y-13.8682 F45.00
G01 X32.7583 Y-13.9177 F45.00
G01 X32.8078 Y-13.9722 F45.00
G01 X32.8516 Y-14.0313 F45.00
G01 X32.8894 Y-14.0945 F45.00
G01 X32.9209 Y-14.1610 F45.00
G01 X32.9457 Y-14.2303 F45.00
G01 X32.9636 Y-14.3017 F45.00
G01 X32.9744 Y-14.3745 F45.00
G01 X32.9780 Y-14.4480 F45.00
G00 X32.9780 Y-14.4480
G01 F30.00
G01 Z-0.6000
G01 F45.00
G01 X32.9744 Y-14.5215 F45.00
G01 X32.9636 Y-14.5943 F45.00
G01 X32.9457 Y-14.6657 F45.00
G01 X32.9209 Y-14.7350 F45.00
G01 X32.8894 Y-14.8015 F45.00
G01 X32.8516 Y-14.8647 F45.00
G01 X32.8078 Y-14.9238 F45.00
G01 X32.7583 Y-14.9783 F45.00
G01 X32.7038 Y-15.0278 F45.00
G01 X32.6447 Y-15.0716 F45.00
G01 X32.5815 Y-15.1094 F45.00
G01 X32.5150 Y-15.1409 F45.00
G01 X32.4457 Y-15.1657 F45.00
G01 X32.3743 Y-15.1836 F45.00
G01 X32.3015 Y-15.1944 F45.00
G01 X32.2280 Y-15.1980 F45.00
G01 X32.1545 Y-15.1944 F45.00
G01 X32.0817 Y-15.1836 F45.00
G01 X32.0103 Y-15.1657 F45.00
G01 X31.9410 Y-15.1409 F45.00
G01 X31.8745 Y-15.1094 F45.00
G01 X31.8113 Y-15.0716 F45.00
G01 X31.7522 Y-15.0278 F45.00
G01 X31.6977 Y-14.9783 F45.00
G01 X31.6482 Y-14.9238 F45.00
G01 X31.6044 Y-14.8647 F45.00
G01 X31.5666 Y-14.8015 F45.00
G01 X31.5351 Y-14.7350 F45.00
G01 X31.5103 Y-14.6657 F45.00
G01 X31.4924 Y-14.5943 F45.00
G01 X31.4816 Y-14.5215 F45.00
G01 X31.4780 Y-14.4480 F45.00
G01 X31.4816 Y-14.3745 F45.00
G01 X31.4924 Y-14.3017 F45.00
G01 X31.5103 Y-14.2303 F45.00
G01 X31.5351 Y-14.1610 F45.00
G01 X31.5666 Y-14.0945 F45.00
G01 X31.6044 Y-14.0313 F45.00
G01 X31.6482 Y-13.9722 F45.00
G01 X31.6977 Y-13.9177 F45.00
G01 X31.7522 Y-13.8682 F45.00
G01 X31.8113 Y-13.8244 F45.00
G01 X31.8745 Y-13.7866 F45.00
G01 X31.9410 Y-13.7551 F45.00
G01 X32.0103 Y-13.7303 F45.00
G01 X32.0817 Y-13.7124 F45.00
G01 X32.1545 Y-13.7016 F45.00
G01 X32.2280 Y-13.6980 F45.00
G01 X32.3015 Y-13.7016 F45.00
G01 X32.3743 Y-13.7124 F45.00
G01 X32.4457 Y-13.7303 F45.00
G01 X32.5150 Y-13.7551 F45.00
G01 X32.5815 Y-13.7866 F45.00
G01 X32.6447 Y-13.8244 F45.00
G01 X32.7038 Y-13.8682 F45.00
G01 X32.7583 Y-13.9177 F45.00
G01 X32.8078 Y-13.9722 F45.00
G01 X32.8516 Y-14.0313 F45.00
G01 X32.8894 Y-14.0945 F45.00
G01 X32.9209 Y-14.1610 F45.00
G01 X32.9457 Y-14.2303 F45.00
G01 X32.9636 Y-14.3017 F45.00
G01 X32.9744 Y-14.3745 F45.00
G01 X32.9780 Y-14.4480 F45.00
G00 X32.9780 Y-14.4480
G01 F30.00
G01 Z-0.9000
G01 F45.00
G01 X32.9744 Y-14.5215 F45.00
G01 X32.9636 Y-14.5943 F45.00
G01 X32.9457 Y-14.6657 F45.00
G01 X32.9209 Y-14.7350 F45.00
G01 X32.8894 Y-14.8015 F45.00
G01 X32.8516 Y-14.8647 F45.00
G01 X32.8078 Y-14.9238 F45.00
G01 X32.7583 Y-14.9783 F45.00
G01 X32.7038 Y-15.0278 F45.00
G01 X32.6447 Y-15.0716 F45.00
G01 X32.5815 Y-15.1094 F45.00
G01 X32.5150 Y-15.1409 F45.00
G01 X32.4457 Y-15.1657 F45.00
G01 X32.3743 Y-15.1836 F45.00
G01 X32.3015 Y-15.1944 F45.00
G01 X32.2280 Y-15.1980 F45.00
G01 X32.1545 Y-15.1944 F45.00
G01 X32.0817 Y-15.1836 F45.00
G01 X32.0103 Y-15.1657 F45.00
G01 X31.9410 Y-15.1409 F45.00
G01 X31.8745 Y-15.1094 F45.00
G01 X31.8113 Y-15.0716 F45.00
G01 X31.7522 Y-15.0278 F45.00
G01 X31.6977 Y-14.9783 F45.00
G01 X31.6482 Y-14.9238 F45.00
G01 X31.6044 Y-14.8647 F45.00
G01 X31.5666 Y-14.8015 F45.00
G01 X31.5351 Y-14.7350 F45.00
G01 X31.5103 Y-14.6657 F45.00
G01 X31.4924 Y-14.5943 F45.00
G01 X31.4816 Y-14.5215 F45.00
G01 X31.4780 Y-14.4480 F45.00
G01 X31.4816 Y-14.3745 F45.00
G01 X31.4924 Y-14.3017 F45.00
G01 X31.5103 Y-14.2303 F45.00
G01 X31.5351 Y-14.1610 F45.00
G01 X31.5666 Y-14.0945 F45.00
G01 X31.6044 Y-14.0313 F45.00
G01 X31.6482 Y-13.9722 F45.00
G01 X31.6977 Y-13.9177 F45.00
G01 X31.7522 Y-13.8682 F45.00
G01 X31.8113 Y-13.8244 F45.00
G01 X31.8745 Y-13.7866 F45.00
G01 X31.9410 Y-13.7551 F45.00
G01 X32.0103 Y-13.7303 F45.00
G01 X32.0817 Y-13.7124 F45.00
G01 X32.1545 Y-13.7016 F45.00
G01 X32.2280 Y-13.6980 F45.00
G01 X32.3015 Y-13.7016 F45.00
G01 X32.3743 Y-13.7124 F45.00
G01 X32.4457 Y-13.7303 F45.00
G01 X32.5150 Y-13.7551 F45.00
G01 X32.5815 Y-13.7866 F45.00
G01 X32.6447 Y-13.8244 F45.00
G01 X32.7038 Y-13.8682 F45.00
G01 X32.7583 Y-13.9177 F45.00
G01 X32.8078 Y-13.9722 F45.00
G01 X32.8516 Y-14.0313 F45.00
G01 X32.8894 Y-14.0945 F45.00
G01 X32.9209 Y-14.1610 F45.00
G01 X32.9457 Y-14.2303 F45.00
G01 X32.9636 Y-14.3017 F45.00
G01 X32.9744 Y-14.3745 F45.00
G01 X32.9780 Y-14.4480 F45.00
G00 X32.9780 Y-14.4480
G01 F30.00
G01 Z-1.2000
G01 F45.00
G01 X32.9744 Y-14.5215 F45.00
G01 X32.9636 Y-14.5943 F45.00
G01 X32.9457 Y-14.6657 F45.00
G01 X32.9209 Y-14.7350 F45.00
G01 X32.8894 Y-14.8015 F45.00
G01 X32.8516 Y-14.8647 F45.00
G01 X32.8078 Y-14.9238 F45.00
G01 X32.7583 Y-14.9783 F45.00
G01 X32.7038 Y-15.0278 F45.00
G01 X32.6447 Y-15.0716 F45.00
G01 X32.5815 Y-15.1094 F45.00
G01 X32.5150 Y-15.1409 F45.00
G01 X32.4457 Y-15.1657 F45.00
G01 X32.3743 Y-15.1836 F45.00
G01 X32.3015 Y-15.1944 F45.00
G01 X32.2280 Y-15.1980 F45.00
G01 X32.1545 Y-15.1944 F45.00
G01 X32.0817 Y-15.1836 F45.00
G01 X32.0103 Y-15.1657 F45.00
G01 X31.9410 Y-15.1409 F45.00
G01 X31.8745 Y-15.1094 F45.00
G01 X31.8113 Y-15.0716 F45.00
G01 X31.7522 Y-15.0278 F45.00
G01 X31.6977 Y-14.9783 F45.00
G01 X31.6482 Y-14.9238 F45.00
G01 X31.6044 Y-14.8647 F45.00
G01 X31.5666 Y-14.8015 F45.00
G01 X31.5351 Y-14.7350 F45.00
G01 X31.5103 Y-14.6657 F45.00
G01 X31.4924 Y-14.5943 F45.00
G01 X31.4816 Y-14.5215 F45.00
G01 X31.4780 Y-14.4480 F45.00
G01 X31.4816 Y-14.3745 F45.00
G01 X31.4924 Y-14.3017 F45.00
G01 X31.5103 Y-14.2303 F45.00
G01 X31.5351 Y-14.1610 F45.00
G01 X31.5666 Y-14.0945 F45.00
G01 X31.6044 Y-14.0313 F45.00
G01 X31.6482 Y-13.9722 F45.00
G01 X31.6977 Y-13.9177 F45.00
G01 X31.7522 Y-13.8682 F45.00
G01 X31.8113 Y-13.8244 F45.00
G01 X31.8745 Y-13.7866 F45.00
G01 X31.9410 Y-13.7551 F45.00
G01 X32.0103 Y-13.7303 F45.00
G01 X32.0817 Y-13.7124 F45.00
G01 X32.1545 Y-13.7016 F45.00
G01 X32.2280 Y-13.6980 F45.00
G01 X32.3015 Y-13.7016 F45.00
G01 X32.3743 Y-13.7124 F45.00
G01 X32.4457 Y-13.7303 F45.00
G01 X32.5150 Y-13.7551 F45.00
G01 X32.5815 Y-13.7866 F45.00
G01 X32.6447 Y-13.8244 F45.00
G01 X32.7038 Y-13.8682 F45.00
G01 X32.7583 Y-13.9177 F45.00
G01 X32.8078 Y-13.9722 F45.00
G01 X32.8516 Y-14.0313 F45.00
G01 X32.8894 Y-14.0945 F45.00
G01 X32.9209 Y-14.1610 F45.00
G01 X32.9457 Y-14.2303 F45.00
G01 X32.9636 Y-14.3017 F45.00
G01 X32.9744 Y-14.3745 F45.00
G01 X32.9780 Y-14.4480 F45.00
G00 X32.9780 Y-14.4480
G01 F30.00
G01 Z-1.5000
G01 F45.00
G01 X32.9744 Y-14.5215 F45.00
G01 X32.9636 Y-14.5943 F45.00
G01 X32.9457 Y-14.6657 F45.00
G01 X32.9209 Y-14.7350 F45.00
G01 X32.8894 Y-14.8015 F45.00
G01 X32.8516 Y-14.8647 F45.00
G01 X32.8078 Y-14.9238 F45.00
G01 X32.7583 Y-14.9783 F45.00
G01 X32.7038 Y-15.0278 F45.00
G01 X32.6447 Y-15.0716 F45.00
G01 X32.5815 Y-15.1094 F45.00
G01 X32.5150 Y-15.1409 F45.00
G01 X32.4457 Y-15.1657 F45.00
G01 X32.3743 Y-15.1836 F45.00
G01 X32.3015 Y-15.1944 F45.00
G01 X32.2280 Y-15.1980 F45.00
G01 X32.1545 Y-15.1944 F45.00
G01 X32.0817 Y-15.1836 F45.00
G01 X32.0103 Y-15.1657 F45.00
G01 X31.9410 Y-15.1409 F45.00
G01 X31.8745 Y-15.1094 F45.00
G01 X31.8113 Y-15.0716 F45.00
G01 X31.7522 Y-15.0278 F45.00
G01 X31.6977 Y-14.9783 F45.00
G01 X31.6482 Y-14.9238 F45.00
G01 X31.6044 Y-14.8647 F45.00
G01 X31.5666 Y-14.8015 F45.00
G01 X31.5351 Y-14.7350 F45.00
G01 X31.5103 Y-14.6657 F45.00
G01 X31.4924 Y-14.5943 F45.00
G01 X31.4816 Y-14.5215 F45.00
G01 X31.4780 Y-14.4480 F45.00
G01 X31.4816 Y-14.3745 F45.00
G01 X31.4924 Y-14.3017 F45.00
G01 X31.5103 Y-14.2303 F45.00
G01 X31.5351 Y-14.1610 F45.00
G01 X31.5666 Y-14.0945 F45.00
G01 X31.6044 Y-14.0313 F45.00
G01 X31.6482 Y-13.9722 F45.00
G01 X31.6977 Y-13.9177 F45.00
G01 X31.7522 Y-13.8682 F45.00
G01 X31.8113 Y-13.8244 F45.00
G01 X31.8745 Y-13.7866 F45.00
G01 X31.9410 Y-13.7551 F45.00
G01 X32.0103 Y-13.7303 F45.00
G01 X32.0817 Y-13.7124 F45.00
G01 X32.1545 Y-13.7016 F45.00
G01 X32.2280 Y-13.6980 F45.00
G01 X32.3015 Y-13.7016 F45.00
G01 X32.3743 Y-13.7124 F45.00
G01 X32.4457 Y-13.7303 F45.00
G01 X32.5150 Y-13.7551 F45.00
G01 X32.5815 Y-13.7866 F45.00
G01 X32.6447 Y-13.8244 F45.00
G01 X32.7038 Y-13.8682 F45.00
G01 X32.7583 Y-13.9177 F45.00
G01 X32.8078 Y-13.9722 F45.00
G01 X32.8516 Y-14.0313 F45.00
G01 X32.8894 Y-14.0945 F45.00
G01 X32.9209 Y-14.1610 F45.00
G01 X32.9457 Y-14.2303 F45.00
G01 X32.9636 Y-14.3017 F45.00
G01 X32.9744 Y-14.3745 F45.00
G01 X32.9780 Y-14.4480 F45.00
G00 X32.9780 Y-14.4480
G01 F30.00
G01 Z-1.8000
G01 F45.00
G01 X32.9744 Y-14.5215 F45.00
G01 X32.9636 Y-14.5943 F45.00
G01 X32.9457 Y-14.6657 F45.00
G01 X32.9209 Y-14.7350 F45.00
G01 X32.8894 Y-14.8015 F45.00
G01 X32.8516 Y-14.8647 F45.00
G01 X32.8078 Y-14.9238 F45.00
G01 X32.7583 Y-14.9783 F45.00
G01 X32.7038 Y-15.0278 F45.00
G01 X32.6447 Y-15.0716 F45.00
G01 X32.5815 Y-15.1094 F45.00
G01 X32.5150 Y-15.1409 F45.00
G01 X32.4457 Y-15.1657 F45.00
G01 X32.3743 Y-15.1836 F45.00
G01 X32.3015 Y-15.1944 F45.00
G01 X32.2280 Y-15.1980 F45.00
G01 X32.1545 Y-15.1944 F45.00
G01 X32.0817 Y-15.1836 F45.00
G01 X32.0103 Y-15.1657 F45.00
G01 X31.9410 Y-15.1409 F45.00
G01 X31.8745 Y-15.1094 F45.00
G01 X31.8113 Y-15.0716 F45.00
G01 X31.7522 Y-15.0278 F45.00
G01 X31.6977 Y-14.9783 F45.00
G01 X31.6482 Y-14.9238 F45.00
G01 X31.6044 Y-14.8647 F45.00
G01 X31.5666 Y-14.8015 F45.00
G01 X31.5351 Y-14.7350 F45.00
G01 X31.5103 Y-14.6657 F45.00
G01 X31.4924 Y-14.5943 F45.00
G01 X31.4816 Y-14.5215 F45.00
G01 X31.4780 Y-14.4480 F45.00
G01 X31.4816 Y-14.3745 F45.00
G01 X31.4924 Y-14.3017 F45.00
G01 X31.5103 Y-14.2303 F45.00
G01 X31.5351 Y-14.1610 F45.00
G01 X31.5666 Y-14.0945 F45.00
G01 X31.6044 Y-14.0313 F45.00
G01 X31.6482 Y-13.9722 F45.00
G01 X31.6977 Y-13.9177 F45.00
G01 X31.7522 Y-13.8682 F45.00
G01 X31.8113 Y-13.8244 F45.00
G01 X31.8745 Y-13.7866 F45.00
G01 X31.9410 Y-13.7551 F45.00
G01 X32.0103 Y-13.7303 F45.00
G01 X32.0817 Y-13.7124 F45.00
G01 X32.1545 Y-13.7016 F45.00
G01 X32.2280 Y-13.6980 F45.00
G01 X32.3015 Y-13.7016 F45.00
G01 X32.3743 Y-13.7124 F45.00
G01 X32.4457 Y-13.7303 F45.00
G01 X32.5150 Y-13.7551 F45.00
G01 X32.5815 Y-13.7866 F45.00
G01 X32.6447 Y-13.8244 F45.00
G01 X32.7038 Y-13.8682 F45.00
G01 X32.7583 Y-13.9177 F45.00
G01 X32.8078 Y-13.9722 F45.00
G01 X32.8516 Y-14.0313 F45.00
G01 X32.8894 Y-14.0945 F45.00
G01 X32.9209 Y-14.1610 F45.00
G01 X32.9457 Y-14.2303 F45.00
G01 X32.9636 Y-14.3017 F45.00
G01 X32.9744 Y-14.3745 F45.00
G01 X32.9780 Y-14.4480 F45.00
G00 Z2.0000
G00 X31.0340 Y-9.0400
G01 F30.00
G01 Z-0.3000
G01 F45.00
G01 X31.0328 Y-9.0645 F45.00
G01 X31.0292 Y-9.0888 F45.00
G01 X31.0232 Y-9.1126 F45.00
G01 X31.0150 Y-9.1357 F45.00
G01 X31.0045 Y-9.1578 F45.00
G01 X30.9919 Y-9.1789 F45.00
G01 X30.9773 Y-9.1986 F45.00
G01 X30.9608 Y-9.2168 F45.00
G01 X30.9426 Y-9.2333 F45.00
G01 X30.9229 Y-9.2479 F45.00
G01 X30.9018 Y-9.2605 F45.00
G01 X30.8797 Y-9.2710 F45.00
G01 X30.8566 Y-9.2792 F45.00
G01 X30.8328 Y-9.2852 F45.00
G01 X30.8085 Y-9.2888 F45.00
G01 X30.7840 Y-9.2900 F45.00
G01 X30.7595 Y-9.2888 F45.00
G01 X30.7352 Y-9.2852 F45.00
G01 X30.7114 Y-9.2792 F45.00
G01 X30.6883 Y-9.2710 F45.00
G01 X30.6662 Y-9.2605 F45.00
G01 X30.6451 Y-9.2479 F45.00
G01 X30.6254 Y-9.2333 F45.00
G01 X30.6072 Y-9.2168 F45.00
G01 X30.5907 Y-9.1986 F45.00
G01 X30.5761 Y-9.1789 F45.00
G01 X30.5635 Y-9.1578 F45.00
G01 X30.5530 Y-9.1357 F45.00
G01 X30.5448 Y-9.1126 F45.00
G01 X30.5388 Y-9.0888 F45.00
G01 X30.5352 Y-9.0645 F45.00
G01 X30.5340 Y-9.0400 F45.00
G01 X30.5352 Y-9.0155 F45.00
G01 X30.5388 Y-8.9912 F45.00
G01 X30.5448 Y-8.9674 F45.00
G01 X30.5530 Y-8.9443 F45.00
G01 X30.5635 Y-8.9222 F45.00
G01 X30.5761 Y-8.9011 F45.00
G01 X30.5907 Y-8.8814 F45.00
G01 X30.6072 Y-8.8632 F45.00
G01 X30.6254 Y-8.8467 F45.00
G01 X30.6451 Y-8.8321 F45.00
G01 X30.6662 Y-8.8195 F45.00
G01 X30.6883 Y-8.8090 F45.00
G01 X30.7114 Y-8.8008 F45.00
G01 X30.7352 Y-8.7948 F45.00
G01 X30.7595 Y-8.7912 F45.00
G01 X30.7840 Y-8.7900 F45.00
G01 X30.8085 Y-8.7912 F45.00
G01 X30.8328 Y-8.7948 F45.00
G01 X30.8566 Y-8.8008 F45.00
G01 X30.8797 Y-8.8090 F45.00
G01 X30.9018 Y-8.8195 F45.00
G01 X30.9229 Y-8.8321 F45.00
G01 X30.9426 Y-8.8467 F45.00
G01 X30.9608 Y-8.8632 F45.00
G01 X30.9773 Y-8.8814 F45.00
G01 X30.9919 Y-8.9011 F45.00
G01 X31.0045 Y-8.9222 F45.00
G01 X31.0150 Y-8.9443 F45.00
G01 X31.0232 Y-8.9674 F45.00
G01 X31.0292 Y-8.9912 F45.00
G01 X31.0328 Y-9.0155 F45.00
G01 X31.0340 Y-9.0400 F45.00
G00 X31.0340 Y-9.0400
G01 F30.00
G01 Z-0.6000
G01 F45.00
G01 X31.0328 Y-9.0645 F45.00
G01 X31.0292 Y-9.0888 F45.00
G01 X31.0232 Y-9.1126 F45.00
G01 X31.0150 Y-9.1357 F45.00
G01 X31.0045 Y-9.1578 F45.00
G01 X30.9919 Y-9.1789 F45.00
G01 X30.9773 Y-9.1986 F45.00
G01 X30.9608 Y-9.2168 F45.00
G01 X30.9426 Y-9.2333 F45.00
G01 X30.9229 Y-9.2479 F45.00
G01 X30.9018 Y-9.2605 F45.00
G01 X30.8797 Y-9.2710 F45.00
G01 X30.8566 Y-9.2792 F45.00
G01 X30.8328 Y-9.2852 F45.00
G01 X30.8085 Y-9.2888 F45.00
G01 X30.7840 Y-9.2900 F45.00
G01 X30.7595 Y-9.2888 F45.00
G01 X30.7352 Y-9.2852 F45.00
G01 X30.7114 Y-9.2792 F45.00
G01 X30.6883 Y-9.2710 F45.00
G01 X30.6662 Y-9.2605 F45.00
G01 X30.6451 Y-9.2479 F45.00
G01 X30.6254 Y-9.2333 F45.00
G01 X30.6072 Y-9.2168 F45.00
G01 X30.5907 Y-9.1986 F45.00
G01 X30.5761 Y-9.1789 F45.00
G01 X30.5635 Y-9.1578 F45.00
G01 X30.5530 Y-9.1357 F45.00
G01 X30.5448 Y-9.1126 F45.00
G01 X30.5388 Y-9.0888 F45.00
G01 X30.5352 Y-9.0645 F45.00
G01 X30.5340 Y-9.0400 F45.00
G01 X30.5352 Y-9.0155 F45.00
G01 X30.5388 Y-8.9912 F45.00
G01 X30.5448 Y-8.9674 F45.00
G01 X30.5530 Y-8.9443 F45.00
G01 X30.5635 Y-8.9222 F45.00
G01 X30.5761 Y-8.9011 F45.00
G01 X30.5907 Y-8.8814 F45.00
G01 X30.6072 Y-8.8632 F45.00
G01 X30.6254 Y-8.8467 F45.00
G01 X30.6451 Y-8.8321 F45.00
G01 X30.6662 Y-8.8195 F45.00
G01 X30.6883 Y-8.8090 F45.00
G01 X30.7114 Y-8.8008 F45.00
G01 X30.7352 Y-8.7948 F45.00
G01 X30.7595 Y-8.7912 F45.00
G01 X30.7840 Y-8.7900 F45.00
G01 X30.8085 Y-8.7912 F45.00
G01 X30.8328 Y-8.7948 F45.00
G01 X30.8566 Y-8.8008 F45.00
G01 X30.8797 Y-8.8090 F45.00
G01 X30.9018 Y-8.8195 F45.00
G01 X30.9229 Y-8.8321 F45.00
G01 X30.9426 Y-8.8467 F45.00
G01 X30.9608 Y-8.8632 F45.00
G01 X30.9773 Y-8.8814 F45.00
G01 X30.9919 Y-8.9011 F45.00
G01 X31.0045 Y-8.9222 F45.00
G01 X31.0150 Y-8.9443 F45.00
G01 X31.0232 Y-8.9674 F45.00
G01 X31.0292 Y-8.9912 F45.00
G01 X31.0328 Y-9.0155 F45.00
G01 X31.0340 Y-9.0400 F45.00
G00 X31.0340 Y-9.0400
G01 F30.00
G01 Z-0.9000
G01 F45.00
G01 X31.0328 Y-9.0645 F45.00
G01 X31.0292 Y-9.0888 F45.00
G01 X31.0232 Y-9.1126 F45.00
G01 X31.0150 Y-9.1357 F45.00
G01 X31.0045 Y-9.1578 F45.00
G01 X30.9919 Y-9.1789 F45.00
G01 X30.9773 Y-9.1986 F45.00
G01 X30.9608 Y-9.2168 F45.00
G01 X30.9426 Y-9.2333 F45.00
G01 X30.9229 Y-9.2479 F45.00
G01 X30.9018 Y-9.2605 F45.00
G01 X30.8797 Y-9.2710 F45.00
G01 X30.8566 Y-9.2792 F45.00
G01 X30.8328 Y-9.2852 F45.00
G01 X30.8085 Y-9.2888 F45.00
G01 X30.7840 Y-9.2900 F45.00
G01 X30.7595 Y-9.2888 F45.00
G01 X30.7352 Y-9.2852 F45.00
G01 X30.7114 Y-9.2792 F45.00
G01 X30.6883 Y-9.2710 F45.00
G01 X30.6662 Y-9.2605 F45.00
G01 X30.6451 Y-9.2479 F45.00
G01 X30.6254 Y-9.2333 F45.00
G01 X30.6072 Y-9.2168 F45.00
G01 X30.5907 Y-9.1986 F45.00
G01 X30.5761 Y-9.1789 F45.00
G01 X30.5635 Y-9.1578 F45.00
G01 X30.5530 Y-9.1357 F45.00
G01 X30.5448 Y-9.1126 F45.00
G01 X30.5388 Y-9.0888 F45.00
G01 X30.5352 Y-9.0645 F45.00
G01 X30.5340 Y-9.0400 F45.00
G01 X30.5352 Y-9.0155 F45.00
G01 X30.5388 Y-8.9912 F45.00
G01 X30.5448 Y-8.9674 F45.00
G01 X30.5530 Y-8.9443 F45.00
G01 X30.5635 Y-8.9222 F45.00
G01 X30.5761 Y-8.9011 F45.00
G01 X30.5907 Y-8.8814 F45.00
G01 X30.6072 Y-8.8632 F45.00
G01 X30.6254 Y-8.8467 F45.00
G01 X30.6451 Y-8.8321 F45.00
G01 X30.6662 Y-8.8195 F45.00
G01 X30.6883 Y-8.8090 F45.00
G01 X30.7114 Y-8.8008 F45.00
G01 X30.7352 Y-8.7948 F45.00
G01 X30.7595 Y-8.7912 F45.00
G01 X30.7840 Y-8.7900 F45.00
G01 X30.8085 Y-8.7912 F45.00
G01 X30.8328 Y-8.7948 F45.00
G01 X30.8566 Y-8.8008 F45.00
G01 X30.8797 Y-8.8090 F45.00
G01 X30.9018 Y-8.8195 F45.00
G01 X30.9229 Y-8.8321 F45.00
G01 X30.9426 Y-8.8467 F45.00
G01 X30.9608 Y-8.8632 F45.00
G01 X30.9773 Y-8.8814 F45.00
G01 X30.9919 Y-8.9011 F45.00
G01 X31.0045 Y-8.9222 F45.00
G01 X31.0150 Y-8.9443 F45.00
G01 X31.0232 Y-8.9674 F45.00
G01 X31.0292 Y-8.9912 F45.00
G01 X31.0328 Y-9.0155 F45.00
G01 X31.0340 Y-9.0400 F45.00
G00 X31.0340 Y-9.0400
G01 F30.00
G01 Z-1.2000
G01 F45.00
G01 X31.0328 Y-9.0645 F45.00
G01 X31.0292 Y-9.0888 F45.00
G01 X31.0232 Y-9.1126 F45.00
G01 X31.0150 Y-9.1357 F45.00
G01 X31.0045 Y-9.1578 F45.00
G01 X30.9919 Y-9.1789 F45.00
G01 X30.9773 Y-9.1986 F45.00
G01 X30.9608 Y-9.2168 F45.00
G01 X30.9426 Y-9.2333 F45.00
G01 X30.9229 Y-9.2479 F45.00
G01 X30.9018 Y-9.2605 F45.00
G01 X30.8797 Y-9.2710 F45.00
G01 X30.8566 Y-9.2792 F45.00
G01 X30.8328 Y-9.2852 F45.00
G01 X30.8085 Y-9.2888 F45.00
G01 X30.7840 Y-9.2900 F45.00
G01 X30.7595 Y-9.2888 F45.00
G01 X30.7352 Y-9.2852 F45.00
G01 X30.7114 Y-9.2792 F45.00
G01 X30.6883 Y-9.2710 F45.00
G01 X30.6662 Y-9.2605 F45.00
G01 X30.6451 Y-9.2479 F45.00
G01 X30.6254 Y-9.2333 F45.00
G01 X30.6072 Y-9.2168 F45.00
G01 X30.5907 Y-9.1986 F45.00
G01 X30.5761 Y-9.1789 F45.00
G01 X30.5635 Y-9.1578 F45.00
G01 X30.5530 Y-9.1357 F45.00
G01 X30.5448 Y-9.1126 F45.00
G01 X30.5388 Y-9.0888 F45.00
G01 X30.5352 Y-9.0645 F45.00
G01 X30.5340 Y-9.0400 F45.00
G01 X30.5352 Y-9.0155 F45.00
G01 X30.5388 Y-8.9912 F45.00
G01 X30.5448 Y-8.9674 F45.00
G01 X30.5530 Y-8.9443 F45.00
G01 X30.5635 Y-8.9222 F45.00
G01 X30.5761 Y-8.9011 F45.00
G01 X30.5907 Y-8.8814 F45.00
G01 X30.6072 Y-8.8632 F45.00
G01 X30.6254 Y-8.8467 F45.00
G01 X30.6451 Y-8.8321 F45.00
G01 X30.6662 Y-8.8195 F45.00
G01 X30.6883 Y-8.8090 F45.00
G01 X30.7114 Y-8.8008 F45.00
G01 X30.7352 Y-8.7948 F45.00
G01 X30.7595 Y-8.7912 F45.00
G01 X30.7840 Y-8.7900 F45.00
G01 X30.8085 Y-8.7912 F45.00
G01 X30.8328 Y-8.7948 F45.00
G01 X30.8566 Y-8.8008 F45.00
G01 X30.8797 Y-8.8090 F45.00
G01 X30.9018 Y-8.8195 F45.00
G01 X30.9229 Y-8.8321 F45.00
G01 X30.9426 Y-8.8467 F45.00
G01 X30.9608 Y-8.8632 F45.00
G01 X30.9773 Y-8.8814 F45.00
G01 X30.9919 Y-8.9011 F45.00
G01 X31.0045 Y-8.9222 F45.00
G01 X31.0150 Y-8.9443 F45.00
G01 X31.0232 Y-8.9674 F45.00
G01 X31.0292 Y-8.9912 F45.00
G01 X31.0328 Y-9.0155 F45.00
G01 X31.0340 Y-9.0400 F45.00
G00 X31.0340 Y-9.0400
G01 F30.00
G01 Z-1.5000
G01 F45.00
G01 X31.0328 Y-9.0645 F45.00
G01 X31.0292 Y-9.0888 F45.00
G01 X31.0232 Y-9.1126 F45.00
G01 X31.0150 Y-9.1357 F45.00
G01 X31.0045 Y-9.1578 F45.00
G01 X30.9919 Y-9.1789 F45.00
G01 X30.9773 Y-9.1986 F45.00
G01 X30.9608 Y-9.2168 F45.00
G01 X30.9426 Y-9.2333 F45.00
G01 X30.9229 Y-9.2479 F45.00
G01 X30.9018 Y-9.2605 F45.00
G01 X30.8797 Y-9.2710 F45.00
G01 X30.8566 Y-9.2792 F45.00
G01 X30.8328 Y-9.2852 F45.00
G01 X30.8085 Y-9.2888 F45.00
G01 X30.7840 Y-9.2900 F45.00
G01 X30.7595 Y-9.2888 F45.00
G01 X30.7352 Y-9.2852 F45.00
G01 X30.7114 Y-9.2792 F45.00
G01 X30.6883 Y-9.2710 F45.00
G01 X30.6662 Y-9.2605 F45.00
G01 X30.6451 Y-9.2479 F45.00
G01 X30.6254 Y-9.2333 F45.00
G01 X30.6072 Y-9.2168 F45.00
G01 X30.5907 Y-9.1986 F45.00
G01 X30.5761 Y-9.1789 F45.00
G01 X30.5635 Y-9.1578 F45.00
G01 X30.5530 Y-9.1357 F45.00
G01 X30.5448 Y-9.1126 F45.00
G01 X30.5388 Y-9.0888 F45.00
G01 X30.5352 Y-9.0645 F45.00
G01 X30.5340 Y-9.0400 F45.00
G01 X30.5352 Y-9.0155 F45.00
G01 X30.5388 Y-8.9912 F45.00
G01 X30.5448 Y-8.9674 F45.00
G01 X30.5530 Y-8.9443 F45.00
G01 X30.5635 Y-8.9222 F45.00
G01 X30.5761 Y-8.9011 F45.00
G01 X30.5907 Y-8.8814 F45.00
G01 X30.6072 Y-8.8632 F45.00
G01 X30.6254 Y-8.8467 F45.00
G01 X30.6451 Y-8.8321 F45.00
G01 X30.6662 Y-8.8195 F45.00
G01 X30.6883 Y-8.8090 F45.00
G01 X30.7114 Y-8.8008 F45.00
G01 X30.7352 Y-8.7948 F45.00
G01 X30.7595 Y-8.7912 F45.00
G01 X30.7840 Y-8.7900 F45.00
G01 X30.8085 Y-8.7912 F45.00
G01 X30.8328 Y-8.7948 F45.00
G01 X30.8566 Y-8.8008 F45.00
G01 X30.8797 Y-8.8090 F45.00
G01 X30.9018 Y-8.8195 F45.00
G01 X30.9229 Y-8.8321 F45.00
G01 X30.9426 Y-8.8467 F45.00
G01 X30.9608 Y-8.8632 F45.00
G01 X30.9773 Y-8.8814 F45.00
G01 X30.9919 Y-8.9011 F45.00
G01 X31.0045 Y-8.9222 F45.00
G01 X31.0150 Y-8.9443 F45.00
G01 X31.0232 Y-8.9674 F45.00
G01 X31.0292 Y-8.9912 F45.00
G01 X31.0328 Y-9.0155 F45.00
G01 X31.0340 Y-9.0400 F45.00
G00 X31.0340 Y-9.0400
G01 F30.00
G01 Z-1.8000
G01 F45.00
G01 X31.0328 Y-9.0645 F45.00
G01 X31.0292 Y-9.0888 F45.00
G01 X31.0232 Y-9.1126 F45.00
G01 X31.0150 Y-9.1357 F45.00
G01 X31.0045 Y-9.1578 F45.00
G01 X30.9919 Y-9.1789 F45.00
G01 X30.9773 Y-9.1986 F45.00
G01 X30.9608 Y-9.2168 F45.00
G01 X30.9426 Y-9.2333 F45.00
G01 X30.9229 Y-9.2479 F45.00
G01 X30.9018 Y-9.2605 F45.00
G01 X30.8797 Y-9.2710 F45.00
G01 X30.8566 Y-9.2792 F45.00
G01 X30.8328 Y-9.2852 F45.00
G01 X30.8085 Y-9.2888 F45.00
G01 X30.7840 Y-9.2900 F45.00
G01 X30.7595 Y-9.2888 F45.00
G01 X30.7352 Y-9.2852 F45.00
G01 X30.7114 Y-9.2792 F45.00
G01 X30.6883 Y-9.2710 F45.00
G01 X30.6662 Y-9.2605 F45.00
G01 X30.6451 Y-9.2479 F45.00
G01 X30.6254 Y-9.2333 F45.00
G01 X30.6072 Y-9.2168 F45.00
G01 X30.5907 Y-9.1986 F45.00
G01 X30.5761 Y-9.1789 F45.00
G01 X30.5635 Y-9.1578 F45.00
G01 X30.5530 Y-9.1357 F45.00
G01 X30.5448 Y-9.1126 F45.00
G01 X30.5388 Y-9.0888 F45.00
G01 X30.5352 Y-9.0645 F45.00
G01 X30.5340 Y-9.0400 F45.00
G01 X30.5352 Y-9.0155 F45.00
G01 X30.5388 Y-8.9912 F45.00
G01 X30.5448 Y-8.9674 F45.00
G01 X30.5530 Y-8.9443 F45.00
G01 X30.5635 Y-8.9222 F45.00
G01 X30.5761 Y-8.9011 F45.00
G01 X30.5907 Y-8.8814 F45.00
G01 X30.6072 Y-8.8632 F45.00
G01 X30.6254 Y-8.8467 F45.00
G01 X30.6451 Y-8.8321 F45.00
G01 X30.6662 Y-8.8195 F45.00
G01 X30.6883 Y-8.8090 F45.00
G01 X30.7114 Y-8.8008 F45.00
G01 X30.7352 Y-8.7948 F45.00
G01 X30.7595 Y-8.7912 F45.00
G01 X30.7840 Y-8.7900 F45.00
G01 X30.8085 Y-8.7912 F45.00
G01 X30.8328 Y-8.7948 F45.00
G01 X30.8566 Y-8.8008 F45.00
G01 X30.8797 Y-8.8090 F45.00
G01 X30.9018 Y-8.8195 F45.00
G01 X30.9229 Y-8.8321 F45.00
G01 X30.9426 Y-8.8467 F45.00
G01 X30.9608 Y-8.8632 F45.00
G01 X30.9773 Y-8.8814 F45.00
G01 X30.9919 Y-8.9011 F45.00
G01 X31.0045 Y-8.9222 F45.00
G01 X31.0150 Y-8.9443 F45.00
G01 X31.0232 Y-8.9674 F45.00
G01 X31.0292 Y-8.9912 F45.00
G01 X31.0328 Y-9.0155 F45.00
G01 X31.0340 Y-9.0400 F45.00
G00 Z2.0000
G00 X31.0340 Y-3.6000
G01 F30.00
G01 Z-0.3000
G01 F45.00
G01 X31.0328 Y-3.6245 F45.00
G01 X31.0292 Y-3.6488 F45.00
G01 X31.0232 Y-3.6726 F45.00
G01 X31.0150 Y-3.6957 F45.00
G01 X31.0045 Y-3.7178 F45.00
G01 X30.9919 Y-3.7389 F45.00
G01 X30.9773 Y-3.7586 F45.00
G01 X30.9608 Y-3.7768 F45.00
G01 X30.9426 Y-3.7933 F45.00
G01 X30.9229 Y-3.8079 F45.00
G01 X30.9018 Y-3.8205 F45.00
G01 X30.8797 Y-3.8310 F45.00
G01 X30.8566 Y-3.8392 F45.00
G01 X30.8328 Y-3.8452 F45.00
G01 X30.8085 Y-3.8488 F45.00
G01 X30.7840 Y-3.8500 F45.00
G01 X30.7595 Y-3.8488 F45.00
G01 X30.7352 Y-3.8452 F45.00
G01 X30.7114 Y-3.8392 F45.00
G01 X30.6883 Y-3.8310 F45.00
G01 X30.6662 Y-3.8205 F45.00
G01 X30.6451 Y-3.8079 F45.00
G01 X30.6254 Y-3.7933 F45.00
G01 X30.6072 Y-3.7768 F45.00
G01 X30.5907 Y-3.7586 F45.00
G01 X30.5761 Y-3.7389 F45.00
G01 X30.5635 Y-3.7178 F45.00
G01 X30.5530 Y-3.6957 F45.00
G01 X30.5448 Y-3.6726 F45.00
G01 X30.5388 Y-3.6488 F45.00
G01 X30.5352 Y-3.6245 F45.00
G01 X30.5340 Y-3.6000 F45.00
G01 X30.5352 Y-3.5755 F45.00
G01 X30.5388 Y-3.5512 F45.00
G01 X30.5448 Y-3.5274 F45.00
G01 X30.5530 Y-3.5043 F45.00
G01 X30.5635 Y-3.4822 F45.00
G01 X30.5761 Y-3.4611 F45.00
G01 X30.5907 Y-3.4414 F45.00
G01 X30.6072 Y-3.4232 F45.00
G01 X30.6254 Y-3.4067 F45.00
G01 X30.6451 Y-3.3921 F45.00
G01 X30.6662 Y-3.3795 F45.00
G01 X30.6883 Y-3.3690 F45.00
G01 X30.7114 Y-3.3608 F45.00
G01 X30.7352 Y-3.3548 F45.00
G01 X30.7595 Y-3.3512 F45.00
G01 X30.7840 Y-3.3500 F45.00
G01 X30.8085 Y-3.3512 F45.00
G01 X30.8328 Y-3.3548 F45.00
G01 X30.8566 Y-3.3608 F45.00
G01 X30.8797 Y-3.3690 F45.00
G01 X30.9018 Y-3.3795 F45.00
G01 X30.9229 Y-3.3921 F45.00
G01 X30.9426 Y-3.4067 F45.00
G01 X30.9608 Y-3.4232 F45.00
G01 X30.9773 Y-3.4414 F45.00
G01 X30.9919 Y-3.4611 F45.00
G01 X31.0045 Y-3.4822 F45.00
G01 X31.0150 Y-3.5043 F45.00
G01 X31.0232 Y-3.5274 F45.00
G01 X31.0292 Y-3.5512 F45.00
G01 X31.0328 Y-3.5755 F45.00
G01 X31.0340 Y-3.6000 F45.00
G00 X31.0340 Y-3.6000
G01 F30.00
G01 Z-0.6000
G01 F45.00
G01 X31.0328 Y-3.6245 F45.00
G01 X31.0292 Y-3.6488 F45.00
G01 X31.0232 Y-3.6726 F45.00
G01 X31.0150 Y-3.6957 F45.00
G01 X31.0045 Y-3.7178 F45.00
G01 X30.9919 Y-3.7389 F45.00
G01 X30.9773 Y-3.7586 F45.00
G01 X30.9608 Y-3.7768 F45.00
G01 X30.9426 Y-3.7933 F45.00
G01 X30.9229 Y-3.8079 F45.00
G01 X30.9018 Y-3.8205 F45.00
G01 X30.8797 Y-3.8310 F45.00
G01 X30.8566 Y-3.8392 F45.00
G01 X30.8328 Y-3.8452 F45.00
G01 X30.8085 Y-3.8488 F45.00
G01 X30.7840 Y-3.8500 F45.00
G01 X30.7595 Y-3.8488 F45.00
G01 X30.7352 Y-3.8452 F45.00
G01 X30.7114 Y-3.8392 F45.00
G01 X30.6883 Y-3.8310 F45.00
G01 X30.6662 Y-3.8205 F45.00
G01 X30.6451 Y-3.8079 F45.00
G01 X30.6254 Y-3.7933 F45.00
G01 X30.6072 Y-3.7768 F45.00
G01 X30.5907 Y-3.7586 F45.00
G01 X30.5761 Y-3.7389 F45.00
G01 X30.5635 Y-3.7178 F45.00
G01 X30.5530 Y-3.6957 F45.00
G01 X30.5448 Y-3.6726 F45.00
G01 X30.5388 Y-3.6488 F45.00
G01 X30.5352 Y-3.6245 F45.00
G01 X30.5340 Y-3.6000 F45.00
G01 X30.5352 Y-3.5755 F45.00
G01 X30.5388 Y-3.5512 F45.00
G01 X30.5448 Y-3.5274 F45.00
G01 X30.5530 Y-3.5043 F45.00
G01 X30.5635 Y-3.4822 F45.00
G01 X30.5761 Y-3.4611 F45.00
G01 X30.5907 Y-3.4414 F45.00
G01 X30.6072 Y-3.4232 F45.00
G01 X30.6254 Y-3.4067 F45.00
G01 X30.6451 Y-3.3921 F45.00
G01 X30.6662 Y-3.3795 F45.00
G01 X30.6883 Y-3.3690 F45.00
G01 X30.7114 Y-3.3608 F45.00
G01 X30.7352 Y-3.3548 F45.00
G01 X30.7595 Y-3.3512 F45.00
G01 X30.7840 Y-3.3500 F45.00
G01 X30.8085 Y-3.3512 F45.00
G01 X30.8328 Y-3.3548 F45.00
G01 X30.8566 Y-3.3608 F45.00
G01 X30.8797 Y-3.3690 F45.00
G01 X30.9018 Y-3.3795 F45.00
G01 X30.9229 Y-3.3921 F45.00
G01 X30.9426 Y-3.4067 F45.00
G01 X30.9608 Y-3.4232 F45.00
G01 X30.9773 Y-3.4414 F45.00
G01 X30.9919 Y-3.4611 F45.00
G01 X31.0045 Y-3.4822 F45.00
G01 X31.0150 Y-3.5043 F45.00
G01 X31.0232 Y-3.5274 F45.00
G01 X31.0292 Y-3.5512 F45.00
G01 X31.0328 Y-3.5755 F45.00
G01 X31.0340 Y-3.6000 F45.00
G00 X31.0340 Y-3.6000
G01 F30.00
G01 Z-0.9000
G01 F45.00
G01 X31.0328 Y-3.6245 F45.00
G01 X31.0292 Y-3.6488 F45.00
G01 X31.0232 Y-3.6726 F45.00
G01 X31.0150 Y-3.6957 F45.00
G01 X31.0045 Y-3.7178 F45.00
G01 X30.9919 Y-3.7389 F45.00
G01 X30.9773 Y-3.7586 F45.00
G01 X30.9608 Y-3.7768 F45.00
G01 X30.9426 Y-3.7933 F45.00
G01 X30.9229 Y-3.8079 F45.00
G01 X30.9018 Y-3.8205 F45.00
G01 X30.8797 Y-3.8310 F45.00
G01 X30.8566 Y-3.8392 F45.00
G01 X30.8328 Y-3.8452 F45.00
G01 X30.8085 Y-3.8488 F45.00
G01 X30.7840 Y-3.8500 F45.00
G01 X30.7595 Y-3.8488 F45.00
G01 X30.7352 Y-3.8452 F45.00
G01 X30.7114 Y-3.8392 F45.00
G01 X30.6883 Y-3.8310 F45.00
G01 X30.6662 Y-3.8205 F45.00
G01 X30.6451 Y-3.8079 F45.00
G01 X30.6254 Y-3.7933 F45.00
G01 X30.6072 Y-3.7768 F45.00
G01 X30.5907 Y-3.7586 F45.00
G01 X30.5761 Y-3.7389 F45.00
G01 X30.5635 Y-3.7178 F45.00
G01 X30.5530 Y-3.6957 F45.00
G01 X30.5448 Y-3.6726 F45.00
G01 X30.5388 Y-3.6488 F45.00
G01 X30.5352 Y-3.6245 F45.00
G01 X30.5340 Y-3.6000 F45.00
G01 X30.5352 Y-3.5755 F45.00
G01 X30.5388 Y-3.5512 F45.00
G01 X30.5448 Y-3.5274 F45.00
G01 X30.5530 Y-3.5043 F45.00
G01 X30.5635 Y-3.4822 F45.00
G01 X30.5761 Y-3.4611 F45.00
G01 X30.5907 Y-3.4414 F45.00
G01 X30.6072 Y-3.4232 F45.00
G01 X30.6254 Y-3.4067 F45.00
G01 X30.6451 Y-3.3921 F45.00
G01 X30.6662 Y-3.3795 F45.00
G01 X30.6883 Y-3.3690 F45.00
G01 X30.7114 Y-3.3608 F45.00
G01 X30.7352 Y-3.3548 F45.00
G01 X30.7595 Y-3.3512 F45.00
G01 X30.7840 Y-3.3500 F45.00
G01 X30.8085 Y-3.3512 F45.00
G01 X30.8328 Y-3.3548 F45.00
G01 X30.8566 Y-3.3608 F45.00
G01 X30.8797 Y-3.3690 F45.00
G01 X30.9018 Y-3.3795 F45.00
G01 X30.9229 Y-3.3921 F45.00
G01 X30.9426 Y-3.4067 F45.00
G01 X30.9608 Y-3.4232 F45.00
G01 X30.9773 Y-3.4414 F45.00
G01 X30.9919 Y-3.4611 F45.00
G01 X31.0045 Y-3.4822 F45.00
G01 X31.0150 Y-3.5043 F45.00
G01 X31.0232 Y-3.5274 F45.00
G01 X31.0292 Y-3.5512 F45.00
G01 X31.0328 Y-3.5755 F45.00
G01 X31.0340 Y-3.6000 F45.00
G00 X31.0340 Y-3.6000
G01 F30.00
G01 Z-1.2000
G01 F45.00
G01 X31.0328 Y-3.6245 F45.00
G01 X31.0292 Y-3.6488 F45.00
G01 X31.0232 Y-3.6726 F45.00
G01 X31.0150 Y-3.6957 F45.00
G01 X31.0045 Y-3.7178 F45.00
G01 X30.9919 Y-3.7389 F45.00
G01 X30.9773 Y-3.7586 F45.00
G01 X30.9608 Y-3.7768 F45.00
G01 X30.9426 Y-3.7933 F45.00
G01 X30.9229 Y-3.8079 F45.00
G01 X30.9018 Y-3.8205 F45.00
G01 X30.8797 Y-3.8310 F45.00
G01 X30.8566 Y-3.8392 F45.00
G01 X30.8328 Y-3.8452 F45.00
G01 X30.8085 Y-3.8488 F45.00
G01 X30.7840 Y-3.8500 F45.00
G01 X30.7595 Y-3.8488 F45.00
G01 X30.7352 Y-3.8452 F45.00
G01 X30.7114 Y-3.8392 F45.00
G01 X30.6883 Y-3.8310 F45.00
G01 X30.6662 Y-3.8205 F45.00
G01 X30.6451 Y-3.8079 F45.00
G01 X30.6254 Y-3.7933 F45.00
G01 X30.6072 Y-3.7768 F45.00
G01 X30.5907 Y-3.7586 F45.00
G01 X30.5761 Y-3.7389 F45.00
G01 X30.5635 Y-3.7178 F45.00
G01 X30.5530 Y-3.6957 F45.00
G01 X30.5448 Y-3.6726 F45.00
G01 X30.5388 Y-3.6488 F45.00
G01 X30.5352 Y-3.6245 F45.00
G01 X30.5340 Y-3.6000 F45.00
G01 X30.5352 Y-3.5755 F45.00
G01 X30.5388 Y-3.5512 F45.00
G01 X30.5448 Y-3.5274 F45.00
G01 X30.5530 Y-3.5043 F45.00
G01 X30.5635 Y-3.4822 F45.00
G01 X30.5761 Y-3.4611 F45.00
G01 X30.5907 Y-3.4414 F45.00
G01 X30.6072 Y-3.4232 F45.00
G01 X30.6254 Y-3.4067 F45.00
G01 X30.6451 Y-3.3921 F45.00
G01 X30.6662 Y-3.3795 F45.00
G01 X30.6883 Y-3.3690 F45.00
G01 X30.7114 Y-3.3608 F45.00
G01 X30.7352 Y-3.3548 F45.00
G01 X30.7595 Y-3.3512 F45.00
G01 X30.7840 Y-3.3500 F45.00
G01 X30.8085 Y-3.3512 F45.00
G01 X30.8328 Y-3.3548 F45.00
G01 X30.8566 Y-3.3608 F45.00
G01 X30.8797 Y-3.3690 F45.00
G01 X30.9018 Y-3.3795 F45.00
G01 X30.9229 Y-3.3921 F45.00
G01 X30.9426 Y-3.4067 F45.00
G01 X30.9608 Y-3.4232 F45.00
G01 X30.9773 Y-3.4414 F45.00
G01 X30.9919 Y-3.4611 F45.00
G01 X31.0045 Y-3.4822 F45.00
G01 X31.0150 Y-3.5043 F45.00
G01 X31.0232 Y-3.5274 F45.00
G01 X31.0292 Y-3.5512 F45.00
G01 X31.0328 Y-3.5755 F45.00
G01 X31.0340 Y-3.6000 F45.00
G00 X31.0340 Y-3.6000
G01 F30.00
G01 Z-1.5000
G01 F45.00
G01 X31.0328 Y-3.6245 F45.00
G01 X31.0292 Y-3.6488 F45.00
G01 X31.0232 Y-3.6726 F45.00
G01 X31.0150 Y-3.6957 F45.00
G01 X31.0045 Y-3.7178 F45.00
G01 X30.9919 Y-3.7389 F45.00
G01 X30.9773 Y-3.7586 F45.00
G01 X30.9608 Y-3.7768 F45.00
G01 X30.9426 Y-3.7933 F45.00
G01 X30.9229 Y-3.8079 F45.00
G01 X30.9018 Y-3.8205 F45.00
G01 X30.8797 Y-3.8310 F45.00
G01 X30.8566 Y-3.8392 F45.00
G01 X30.8328 Y-3.8452 F45.00
G01 X30.8085 Y-3.8488 F45.00
G01 X30.7840 Y-3.8500 F45.00
G01 X30.7595 Y-3.8488 F45.00
G01 X30.7352 Y-3.8452 F45.00
G01 X30.7114 Y-3.8392 F45.00
G01 X30.6883 Y-3.8310 F45.00
G01 X30.6662 Y-3.8205 F45.00
G01 X30.6451 Y-3.8079 F45.00
G01 X30.6254 Y-3.7933 F45.00
G01 X30.6072 Y-3.7768 F45.00
G01 X30.5907 Y-3.7586 F45.00
G01 X30.5761 Y-3.7389 F45.00
G01 X30.5635 Y-3.7178 F45.00
G01 X30.5530 Y-3.6957 F45.00
G01 X30.5448 Y-3.6726 F45.00
G01 X30.5388 Y-3.6488 F45.00
G01 X30.5352 Y-3.6245 F45.00
G01 X30.5340 Y-3.6000 F45.00
G01 X30.5352 Y-3.5755 F45.00
G01 X30.5388 Y-3.5512 F45.00
G01 X30.5448 Y-3.5274 F45.00
G01 X30.5530 Y-3.5043 F45.00
G01 X30.5635 Y-3.4822 F45.00
G01 X30.5761 Y-3.4611 F45.00
G01 X30.5907 Y-3.4414 F45.00
G01 X30.6072 Y-3.4232 F45.00
G01 X30.6254 Y-3.4067 F45.00
G01 X30.6451 Y-3.3921 F45.00
G01 X30.6662 Y-3.3795 F45.00
G01 X30.6883 Y-3.3690 F45.00
G01 X30.7114 Y-3.3608 F45.00
G01 X30.7352 Y-3.3548 F45.00
G01 X30.7595 Y-3.3512 F45.00
G01 X30.7840 Y-3.3500 F45.00
G01 X30.8085 Y-3.3512 F45.00
G01 X30.8328 Y-3.3548 F45.00
G01 X30.8566 Y-3.3608 F45.00
G01 X30.8797 Y-3.3690 F45.00
G01 X30.9018 Y-3.3795 F45.00
G01 X30.9229 Y-3.3921 F45.00
G01 X30.9426 Y-3.4067 F45.00
G01 X30.9608 Y-3.4232 F45.00
G01 X30.9773 Y-3.4414 F45.00
G01 X30.9919 Y-3.4611 F45.00
G01 X31.0045 Y-3.4822 F45.00
G01 X31.0150 Y-3.5043 F45.00
G01 X31.0232 Y-3.5274 F45.00
G01 X31.0292 Y-3.5512 F45.00
G01 X31.0328 Y-3.5755 F45.00
G01 X31.0340 Y-3.6000 F45.00
G00 X31.0340 Y-3.6000
G01 F30.00
G01 Z-1.8000
G01 F45.00
G01 X31.0328 Y-3.6245 F45.00
G01 X31.0292 Y-3.6488 F45.00
G01 X31.0232 Y-3.6726 F45.00
G01 X31.0150 Y-3.6957 F45.00
G01 X31.0045 Y-3.7178 F45.00
G01 X30.9919 Y-3.7389 F45.00
G01 X30.9773 Y-3.7586 F45.00
G01 X30.9608 Y-3.7768 F45.00
G01 X30.9426 Y-3.7933 F45.00
G01 X30.9229 Y-3.8079 F45.00
G01 X30.9018 Y-3.8205 F45.00
G01 X30.8797 Y-3.8310 F45.00
G01 X30.8566 Y-3.8392 F45.00
G01 X30.8328 Y-3.8452 F45.00
G01 X30.8085 Y-3.8488 F45.00
G01 X30.7840 Y-3.8500 F45.00
G01 X30.7595 Y-3.8488 F45.00
G01 X30.7352 Y-3.8452 F45.00
G01 X30.7114 Y-3.8392 F45.00
G01 X30.6883 Y-3.8310 F45.00
G01 X30.6662 Y-3.8205 F45.00
G01 X30.6451 Y-3.8079 F45.00
G01 X30.6254 Y-3.7933 F45.00
G01 X30.6072 Y-3.7768 F45.00
G01 X30.5907 Y-3.7586 F45.00
G01 X30.5761 Y-3.7389 F45.00
G01 X30.5635 Y-3.7178 F45.00
G01 X30.5530 Y-3.6957 F45.00
G01 X30.5448 Y-3.6726 F45.00
G01 X30.5388 Y-3.6488 F45.00
G01 X30.5352 Y-3.6245 F45.00
G01 X30.5340 Y-3.6000 F45.00
G01 X30.5352 Y-3.5755 F45.00
G01 X30.5388 Y-3.5512 F45.00
G01 X30.5448 Y-3.5274 F45.00
G01 X30.5530 Y-3.5043 F45.00
G01 X30.5635 Y-3.4822 F45.00
G01 X30.5761 Y-3.4611 F45.00
G01 X30.5907 Y-3.4414 F45.00
G01 X30.6072 Y-3.4232 F45.00
G01 X30.6254 Y-3.4067 F45.00
G01 X30.6451 Y-3.3921 F45.00
G01 X30.6662 Y-3.3795 F45.00
G01 X30.6883 Y-3.3690 F45.00
G01 X30.7114 Y-3.3608 F45.00
G01 X30.7352 Y-3.3548 F45.00
G01 X30.7595 Y-3.3512 F45.00
G01 X30.7840 Y-3.3500 F45.00
G01 X30.8085 Y-3.3512 F45.00
G01 X30.8328 Y-3.3548 F45.00
G01 X30.8566 Y-3.3608 F45.00
G01 X30.8797 Y-3.3690 F45.00
G01 X30.9018 Y-3.3795 F45.00
G01 X30.9229 Y-3.3921 F45.00
G01 X30.9426 Y-3.4067 F45.00
G01 X30.9608 Y-3.4232 F45.00
G01 X30.9773 Y-3.4414 F45.00
G01 X30.9919 Y-3.4611 F45.00
G01 X31.0045 Y-3.4822 F45.00
G01 X31.0150 Y-3.5043 F45.00
G01 X31.0232 Y-3.5274 F45.00
G01 X31.0292 Y-3.5512 F45.00
G01 X31.0328 Y-3.5755 F45.00
G01 X31.0340 Y-3.6000 F45.00
G00 Z2.0000
G00 X38.0340 Y-3.6000
G01 F30.00
G01 Z-0.3000
G01 F45.00
G01 X38.0328 Y-3.6245 F45.00
G01 X38.0292 Y-3.6488 F45.00
G01 X38.0232 Y-3.6726 F45.00
G01 X38.0150 Y-3.6957 F45.00
G01 X38.0045 Y-3.7178 F45.00
G01 X37.9919 Y-3.7389 F45.00
G01 X37.9773 Y-3.7586 F45.00
G01 X37.9608 Y-3.7768 F45.00
G01 X37.9426 Y-3.7933 F45.00
G01 X37.9229 Y-3.8079 F45.00
G01 X37.9018 Y-3.8205 F45.00
G01 X37.8797 Y-3.8310 F45.00
G01 X37.8566 Y-3.8392 F45.00
G01 X37.8328 Y-3.8452 F45.00
G01 X37.8085 Y-3.8488 F45.00
G01 X37.7840 Y-3.8500 F45.00
G01 X37.7595 Y-3.8488 F45.00
G01 X37.7352 Y-3.8452 F45.00
G01 X37.7114 Y-3.8392 F45.00
G01 X37.6883 Y-3.8310 F45.00
G01 X37.6662 Y-3.8205 F45.00
G01 X37.6451 Y-3.8079 F45.00
G01 X37.6254 Y-3.7933 F45.00
G01 X37.6072 Y-3.7768 F45.00
G01 X37.5907 Y-3.7586 F45.00
G01 X37.5761 Y-3.7389 F45.00
G01 X37.5635 Y-3.7178 F45.00
G01 X37.5530 Y-3.6957 F45.00
G01 X37.5448 Y-3.6726 F45.00
G01 X37.5388 Y-3.6488 F45.00
G01 X37.5352 Y-3.6245 F45.00
G01 X37.5340 Y-3.6000 F45.00
G01 X37.5352 Y-3.5755 F45.00
G01 X37.5388 Y-3.5512 F45.00
G01 X37.5448 Y-3.5274 F45.00
G01 X37.5530 Y-3.5043 F45.00
G01 X37.5635 Y-3.4822 F45.00
G01 X37.5761 Y-3.4611 F45.00
G01 X37.5907 Y-3.4414 F45.00
G01 X37.6072 Y-3.4232 F45.00
G01 X37.6254 Y-3.4067 F45.00
G01 X37.6451 Y-3.3921 F45.00
G01 X37.6662 Y-3.3795 F45.00
G01 X37.6883 Y-3.3690 F45.00
G01 X37.7114 Y-3.3608 F45.00
G01 X37.7352 Y-3.3548 F45.00
G01 X37.7595 Y-3.3512 F45.00
G01 X37.7840 Y-3.3500 F45.00
G01 X37.8085 Y-3.3512 F45.00
G01 X37.8328 Y-3.3548 F45.00
G01 X37.8566 Y-3.3608 F45.00
G01 X37.8797 Y-3.3690 F45.00
G01 X37.9018 Y-3.3795 F45.00
G01 X37.9229 Y-3.3921 F45.00
G01 X37.9426 Y-3.4067 F45.00
G01 X37.9608 Y-3.4232 F45.00
G01 X37.9773 Y-3.4414 F45.00
G01 X37.9919 Y-3.4611 F45.00
G01 X38.0045 Y-3.4822 F45.00
G01 X38.0150 Y-3.5043 F45.00
G01 X38.0232 Y-3.5274 F45.00
G01 X38.0292 Y-3.5512 F45.00
G01 X38.0328 Y-3.5755 F45.00
G01 X38.0340 Y-3.6000 F45.00
G00 X38.0340 Y-3.6000
G01 F30.00
G01 Z-0.6000
G01 F45.00
G01 X38.0328 Y-3.6245 F45.00
G01 X38.0292 Y-3.6488 F45.00
G01 X38.0232 Y-3.6726 F45.00
G01 X38.0150 Y-3.6957 F45.00
G01 X38.0045 Y-3.7178 F45.00
G01 X37.9919 Y-3.7389 F45.00
G01 X37.9773 Y-3.7586 F45.00
G01 X37.9608 Y-3.7768 F45.00
G01 X37.9426 Y-3.7933 F45.00
G01 X37.9229 Y-3.8079 F45.00
G01 X37.9018 Y-3.8205 F45.00
G01 X37.8797 Y-3.8310 F45.00
G01 X37.8566 Y-3.8392 F45.00
G01 X37.8328 Y-3.8452 F45.00
G01 X37.8085 Y-3.8488 F45.00
G01 X37.7840 Y-3.8500 F45.00
G01 X37.7595 Y-3.8488 F45.00
G01 X37.7352 Y-3.8452 F45.00
G01 X37.7114 Y-3.8392 F45.00
G01 X37.6883 Y-3.8310 F45.00
G01 X37.6662 Y-3.8205 F45.00
G01 X37.6451 Y-3.8079 F45.00
G01 X37.6254 Y-3.7933 F45.00
G01 X37.6072 Y-3.7768 F45.00
G01 X37.5907 Y-3.7586 F45.00
G01 X37.5761 Y-3.7389 F45.00
G01 X37.5635 Y-3.7178 F45.00
G01 X37.5530 Y-3.6957 F45.00
G01 X37.5448 Y-3.6726 F45.00
G01 X37.5388 Y-3.6488 F45.00
G01 X37.5352 Y-3.6245 F45.00
G01 X37.5340 Y-3.6000 F45.00
G01 X37.5352 Y-3.5755 F45.00
G01 X37.5388 Y-3.5512 F45.00
G01 X37.5448 Y-3.5274 F45.00
G01 X37.5530 Y-3.5043 F45.00
G01 X37.5635 Y-3.4822 F45.00
G01 X37.5761 Y-3.4611 F45.00
G01 X37.5907 Y-3.4414 F45.00
G01 X37.6072 Y-3.4232 F45.00
G01 X37.6254 Y-3.4067 F45.00
G01 X37.6451 Y-3.3921 F45.00
G01 X37.6662 Y-3.3795 F45.00
G01 X37.6883 Y-3.3690 F45.00
G01 X37.7114 Y-3.3608 F45.00
G01 X37.7352 Y-3.3548 F45.00
G01 X37.7595 Y-3.3512 F45.00
G01 X37.7840 Y-3.3500 F45.00
G01 X37.8085 Y-3.3512 F45.00
G01 X37.8328 Y-3.3548 F45.00
G01 X37.8566 Y-3.3608 F45.00
G01 X37.8797 Y-3.3690 F45.00
G01 X37.9018 Y-3.3795 F45.00
G01 X37.9229 Y-3.3921 F45.00
G01 X37.9426 Y-3.4067 F45.00
G01 X37.9608 Y-3.4232 F45.00
G01 X37.9773 Y-3.4414 F45.00
G01 X37.9919 Y-3.4611 F45.00
G01 X38.0045 Y-3.4822 F45.00
G01 X38.0150 Y-3.5043 F45.00
G01 X38.0232 Y-3.5274 F45.00
G01 X38.0292 Y-3.5512 F45.00
G01 X38.0328 Y-3.5755 F45.00
G01 X38.0340 Y-3.6000 F45.00
G00 X38.0340 Y-3.6000
G01 F30.00
G01 Z-0.9000
G01 F45.00
G01 X38.0328 Y-3.6245 F45.00
G01 X38.0292 Y-3.6488 F45.00
G01 X38.0232 Y-3.6726 F45.00
G01 X38.0150 Y-3.6957 F45.00
G01 X38.0045 Y-3.7178 F45.00
G01 X37.9919 Y-3.7389 F45.00
G01 X37.9773 Y-3.7586 F45.00
G01 X37.9608 Y-3.7768 F45.00
G01 X37.9426 Y-3.7933 F45.00
G01 X37.9229 Y-3.8079 F45.00
G01 X37.9018 Y-3.8205 F45.00
G01 X37.8797 Y-3.8310 F45.00
G01 X37.8566 Y-3.8392 F45.00
G01 X37.8328 Y-3.8452 F45.00
G01 X37.8085 Y-3.8488 F45.00
G01 X37.7840 Y-3.8500 F45.00
G01 X37.7595 Y-3.8488 F45.00
G01 X37.7352 Y-3.8452 F45.00
G01 X37.7114 Y-3.8392 F45.00
G01 X37.6883 Y-3.8310 F45.00
G01 X37.6662 Y-3.8205 F45.00
G01 X37.6451 Y-3.8079 F45.00
G01 X37.6254 Y-3.7933 F45.00
G01 X37.6072 Y-3.7768 F45.00
G01 X37.5907 Y-3.7586 F45.00
G01 X37.5761 Y-3.7389 F45.00
G01 X37.5635 Y-3.7178 F45.00
G01 X37.5530 Y-3.6957 F45.00
G01 X37.5448 Y-3.6726 F45.00
G01 X37.5388 Y-3.6488 F45.00
G01 X37.5352 Y-3.6245 F45.00
G01 X37.5340 Y-3.6000 F45.00
G01 X37.5352 Y-3.5755 F45.00
G01 X37.5388 Y-3.5512 F45.00
G01 X37.5448 Y-3.5274 F45.00
G01 X37.5530 Y-3.5043 F45.00
G01 X37.5635 Y-3.4822 F45.00
G01 X37.5761 Y-3.4611 F45.00
G01 X37.5907 Y-3.4414 F45.00
G01 X37.6072 Y-3.4232 F45.00
G01 X37.6254 Y-3.4067 F45.00
G01 X37.6451 Y-3.3921 F45.00
G01 X37.6662 Y-3.3795 F45.00
G01 X37.6883 Y-3.3690 F45.00
G01 X37.7114 Y-3.3608 F45.00
G01 X37.7352 Y-3.3548 F45.00
G01 X37.7595 Y-3.3512 F45.00
G01 X37.7840 Y-3.3500 F45.00
G01 X37.8085 Y-3.3512 F45.00
G01 X37.8328 Y-3.3548 F45.00
G01 X37.8566 Y-3.3608 F45.00
G01 X37.8797 Y-3.3690 F45.00
G01 X37.9018 Y-3.3795 F45.00
G01 X37.9229 Y-3.3921 F45.00
G01 X37.9426 Y-3.4067 F45.00
G01 X37.9608 Y-3.4232 F45.00
G01 X37.9773 Y-3.4414 F45.00
G01 X37.9919 Y-3.4611 F45.00
G01 X38.0045 Y-3.4822 F45.00
G01 X38.0150 Y-3.5043 F45.00
G01 X38.0232 Y-3.5274 F45.00
G01 X38.0292 Y-3.5512 F45.00
G01 X38.0328 Y-3.5755 F45.00
G01 X38.0340 Y-3.6000 F45.00
G00 X38.0340 Y-3.6000
G01 F30.00
G01 Z-1.2000
G01 F45.00
G01 X38.0328 Y-3.6245 F45.00
G01 X38.0292 Y-3.6488 F45.00
G01 X38.0232 Y-3.6726 F45.00
G01 X38.0150 Y-3.6957 F45.00
G01 X38.0045 Y-3.7178 F45.00
G01 X37.9919 Y-3.7389 F45.00
G01 X37.9773 Y-3.7586 F45.00
G01 X37.9608 Y-3.7768 F45.00
G01 X37.9426 Y-3.7933 F45.00
G01 X37.9229 Y-3.8079 F45.00
G01 X37.9018 Y-3.8205 F45.00
G01 X37.8797 Y-3.8310 F45.00
G01 X37.8566 Y-3.8392 F45.00
G01 X37.8328 Y-3.8452 F45.00
G01 X37.8085 Y-3.8488 F45.00
G01 X37.7840 Y-3.8500 F45.00
G01 X37.7595 Y-3.8488 F45.00
G01 X37.7352 Y-3.8452 F45.00
G01 X37.7114 Y-3.8392 F45.00
G01 X37.6883 Y-3.8310 F45.00
G01 X37.6662 Y-3.8205 F45.00
G01 X37.6451 Y-3.8079 F45.00
G01 X37.6254 Y-3.7933 F45.00
G01 X37.6072 Y-3.7768 F45.00
G01 X37.5907 Y-3.7586 F45.00
G01 X37.5761 Y-3.7389 F45.00
G01 X37.5635 Y-3.7178 F45.00
G01 X37.5530 Y-3.6957 F45.00
G01 X37.5448 Y-3.6726 F45.00
G01 X37.5388 Y-3.6488 F45.00
G01 X37.5352 Y-3.6245 F45.00
G01 X37.5340 Y-3.6000 F45.00
G01 X37.5352 Y-3.5755 F45.00
G01 X37.5388 Y-3.5512 F45.00
G01 X37.5448 Y-3.5274 F45.00
G01 X37.5530 Y-3.5043 F45.00
G01 X37.5635 Y-3.4822 F45.00
G01 X37.5761 Y-3.4611 F45.00
G01 X37.5907 Y-3.4414 F45.00
G01 X37.6072 Y-3.4232 F45.00
G01 X37.6254 Y-3.4067 F45.00
G01 X37.6451 Y-3.3921 F45.00
G01 X37.6662 Y-3.3795 F45.00
G01 X37.6883 Y-3.3690 F45.00
G01 X37.7114 Y-3.3608 F45.00
G01 X37.7352 Y-3.3548 F45.00
G01 X37.7595 Y-3.3512 F45.00
G01 X37.7840 Y-3.3500 F45.00
G01 X37.8085 Y-3.3512 F45.00
G01 X37.8328 Y-3.3548 F45.00
G01 X37.8566 Y-3.3608 F45.00
G01 X37.8797 Y-3.3690 F45.00
G01 X37.9018 Y-3.3795 F45.00
G01 X37.9229 Y-3.3921 F45.00
G01 X37.9426 Y-3.4067 F45.00
G01 X37.9608 Y-3.4232 F45.00
G01 X37.9773 Y-3.4414 F45.00
G01 X37.9919 Y-3.4611 F45.00
G01 X38.0045 Y-3.4822 F45.00
G01 X38.0150 Y-3.5043 F45.00
G01 X38.0232 Y-3.5274 F45.00
G01 X38.0292 Y-3.5512 F45.00
G01 X38.0328 Y-3.5755 F45.00
G01 X38.0340 Y-3.6000 F45.00
G00 X38.0340 Y-3.6000
G01 F30.00
G01 Z-1.5000
G01 F45.00
G01 X38.0328 Y-3.6245 F45.00
G01 X38.0292 Y-3.6488 F45.00
G01 X38.0232 Y-3.6726 F45.00
G01 X38.0150 Y-3.6957 F45.00
G01 X38.0045 Y-3.7178 F45.00
G01 X37.9919 Y-3.7389 F45.00
G01 X37.9773 Y-3.7586 F45.00
G01 X37.9608 Y-3.7768 F45.00
G01 X37.9426 Y-3.7933 F45.00
G01 X37.9229 Y-3.8079 F45.00
G01 X37.9018 Y-3.8205 F45.00
G01 X37.8797 Y-3.8310 F45.00
G01 X37.8566 Y-3.8392 F45.00
G01 X37.8328 Y-3.8452 F45.00
G01 X37.8085 Y-3.8488 F45.00
G01 X37.7840 Y-3.8500 F45.00
G01 X37.7595 Y-3.8488 F45.00
G01 X37.7352 Y-3.8452 F45.00
G01 X37.7114 Y-3.8392 F45.00
G01 X37.6883 Y-3.8310 F45.00
G01 X37.6662 Y-3.8205 F45.00
G01 X37.6451 Y-3.8079 F45.00
G01 X37.6254 Y-3.7933 F45.00
G01 X37.6072 Y-3.7768 F45.00
G01 X37.5907 Y-3.7586 F45.00
G01 X37.5761 Y-3.7389 F45.00
G01 X37.5635 Y-3.7178 F45.00
G01 X37.5530 Y-3.6957 F45.00
G01 X37.5448 Y-3.6726 F45.00
G01 X37.5388 Y-3.6488 F45.00
G01 X37.5352 Y-3.6245 F45.00
G01 X37.5340 Y-3.6000 F45.00
G01 X37.5352 Y-3.5755 F45.00
G01 X37.5388 Y-3.5512 F45.00
G01 X37.5448 Y-3.5274 F45.00
G01 X37.5530 Y-3.5043 F45.00
G01 X37.5635 Y-3.4822 F45.00
G01 X37.5761 Y-3.4611 F45.00
G01 X37.5907 Y-3.4414 F45.00
G01 X37.6072 Y-3.4232 F45.00
G01 X37.6254 Y-3.4067 F45.00
G01 X37.6451 Y-3.3921 F45.00
G01 X37.6662 Y-3.3795 F45.00
G01 X37.6883 Y-3.3690 F45.00
G01 X37.7114 Y-3.3608 F45.00
G01 X37.7352 Y-3.3548 F45.00
G01 X37.7595 Y-3.3512 F45.00
G01 X37.7840 Y-3.3500 F45.00
G01 X37.8085 Y-3.3512 F45.00
G01 X37.8328 Y-3.3548 F45.00
G01 X37.8566 Y-3.3608 F45.00
G01 X37.8797 Y-3.3690 F45.00
G01 X37.9018 Y-3.3795 F45.00
G01 X37.9229 Y-3.3921 F45.00
G01 X37.9426 Y-3.4067 F45.00
G01 X37.9608 Y-3.4232 F45.00
G01 X37.9773 Y-3.4414 F45.00
G01 X37.9919 Y-3.4611 F45.00
G01 X38.0045 Y-3.4822 F45.00
G01 X38.0150 Y-3.5043 F45.00
G01 X38.0232 Y-3.5274 F45.00
G01 X38.0292 Y-3.5512 F45.00
G01 X38.0328 Y-3.5755 F45.00
G01 X38.0340 Y-3.6000 F45.00
G00 X38.0340 Y-3.6000
G01 F30.00
G01 Z-1.8000
G01 F45.00
G01 X38.0328 Y-3.6245 F45.00
G01 X38.0292 Y-3.6488 F45.00
G01 X38.0232 Y-3.6726 F45.00
G01 X38.0150 Y-3.6957 F45.00
G01 X38.0045 Y-3.7178 F45.00
G01 X37.9919 Y-3.7389 F45.00
G01 X37.9773 Y-3.7586 F45.00
G01 X37.9608 Y-3.7768 F45.00
G01 X37.9426 Y-3.7933 F45.00
G01 X37.9229 Y-3.8079 F45.00
G01 X37.9018 Y-3.8205 F45.00
G01 X37.8797 Y-3.8310 F45.00
G01 X37.8566 Y-3.8392 F45.00
G01 X37.8328 Y-3.8452 F45.00
G01 X37.8085 Y-3.8488 F45.00
G01 X37.7840 Y-3.8500 F45.00
G01 X37.7595 Y-3.8488 F45.00
G01 X37.7352 Y-3.8452 F45.00
G01 X37.7114 Y-3.8392 F45.00
G01 X37.6883 Y-3.8310 F45.00
G01 X37.6662 Y-3.8205 F45.00
G01 X37.6451 Y-3.8079 F45.00
G01 X37.6254 Y-3.7933 F45.00
G01 X37.6072 Y-3.7768 F45.00
G01 X37.5907 Y-3.7586 F45.00
G01 X37.5761 Y-3.7389 F45.00
G01 X37.5635 Y-3.7178 F45.00
G01 X37.5530 Y-3.6957 F45.00
G01 X37.5448 Y-3.6726 F45.00
G01 X37.5388 Y-3.6488 F45.00
G01 X37.5352 Y-3.6245 F45.00
G01 X37.5340 Y-3.6000 F45.00
G01 X37.5352 Y-3.5755 F45.00
G01 X37.5388 Y-3.5512 F45.00
G01 X37.5448 Y-3.5274 F45.00
G01 X37.5530 Y-3.5043 F45.00
G01 X37.5635 Y-3.4822 F45.00
G01 X37.5761 Y-3.4611 F45.00
G01 X37.5907 Y-3.4414 F45.00
G01 X37.6072 Y-3.4232 F45.00
G01 X37.6254 Y-3.4067 F45.00
G01 X37.6451 Y-3.3921 F45.00
G01 X37.6662 Y-3.3795 F45.00
G01 X37.6883 Y-3.3690 F45.00
G01 X37.7114 Y-3.3608 F45.00
G01 X37.7352 Y-3.3548 F45.00
G01 X37.7595 Y-3.3512 F45.00
G01 X37.7840 Y-3.3500 F45.00
G01 X37.8085 Y-3.3512 F45.00
G01 X37.8328 Y-3.3548 F45.00
G01 X37.8566 Y-3.3608 F45.00
G01 X37.8797 Y-3.3690 F45.00
G01 X37.9018 Y-3.3795 F45.00
G01 X37.9229 Y-3.3921 F45.00
G01 X37.9426 Y-3.4067 F45.00
G01 X37.9608 Y-3.4232 F45.00
G01 X37.9773 Y-3.4414 F45.00
G01 X37.9919 Y-3.4611 F45.00
G01 X38.0045 Y-3.4822 F45.00
G01 X38.0150 Y-3.5043 F45.00
G01 X38.0232 Y-3.5274 F45.00
G01 X38.0292 Y-3.5512 F45.00
G01 X38.0328 Y-3.5755 F45.00
G01 X38.0340 Y-3.6000 F45.00
G00 Z2.0000
G00 X38.0340 Y-9.0400
G01 F30.00
G01 Z-0.3000
G01 F45.00
G01 X38.0328 Y-9.0645 F45.00
G01 X38.0292 Y-9.0888 F45.00
G01 X38.0232 Y-9.1126 F45.00
G01 X38.0150 Y-9.1357 F45.00
G01 X38.0045 Y-9.1578 F45.00
G01 X37.9919 Y-9.1789 F45.00
G01 X37.9773 Y-9.1986 F45.00
G01 X37.9608 Y-9.2168 F45.00
G01 X37.9426 Y-9.2333 F45.00
G01 X37.9229 Y-9.2479 F45.00
G01 X37.9018 Y-9.2605 F45.00
G01 X37.8797 Y-9.2710 F45.00
G01 X37.8566 Y-9.2792 F45.00
G01 X37.8328 Y-9.2852 F45.00
G01 X37.8085 Y-9.2888 F45.00
G01 X37.7840 Y-9.2900 F45.00
G01 X37.7595 Y-9.2888 F45.00
G01 X37.7352 Y-9.2852 F45.00
G01 X37.7114 Y-9.2792 F45.00
G01 X37.6883 Y-9.2710 F45.00
G01 X37.6662 Y-9.2605 F45.00
G01 X37.6451 Y-9.2479 F45.00
G01 X37.6254 Y-9.2333 F45.00
G01 X37.6072 Y-9.2168 F45.00
G01 X37.5907 Y-9.1986 F45.00
G01 X37.5761 Y-9.1789 F45.00
G01 X37.5635 Y-9.1578 F45.00
G01 X37.5530 Y-9.1357 F45.00
G01 X37.5448 Y-9.1126 F45.00
G01 X37.5388 Y-9.0888 F45.00
G01 X37.5352 Y-9.0645 F45.00
G01 X37.5340 Y-9.0400 F45.00
G01 X37.5352 Y-9.0155 F45.00
G01 X37.5388 Y-8.9912 F45.00
G01 X37.5448 Y-8.9674 F45.00
G01 X37.5530 Y-8.9443 F45.00
G01 X37.5635 Y-8.9222 F45.00
G01 X37.5761 Y-8.9011 F45.00
G01 X37.5907 Y-8.8814 F45.00
G01 X37.6072 Y-8.8632 F45.00
G01 X37.6254 Y-8.8467 F45.00
G01 X37.6451 Y-8.8321 F45.00
G01 X37.6662 Y-8.8195 F45.00
G01 X37.6883 Y-8.8090 F45.00
G01 X37.7114 Y-8.8008 F45.00
G01 X37.7352 Y-8.7948 F45.00
G01 X37.7595 Y-8.7912 F45.00
G01 X37.7840 Y-8.7900 F45.00
G01 X37.8085 Y-8.7912 F45.00
G01 X37.8328 Y-8.7948 F45.00
G01 X37.8566 Y-8.8008 F45.00
G01 X37.8797 Y-8.8090 F45.00
G01 X37.9018 Y-8.8195 F45.00
G01 X37.9229 Y-8.8321 F45.00
G01 X37.9426 Y-8.8467 F45.00
G01 X37.9608 Y-8.8632 F45.00
G01 X37.9773 Y-8.8814 F45.00
G01 X37.9919 Y-8.9011 F45.00
G01 X38.0045 Y-8.9222 F45.00
G01 X38.0150 Y-8.9443 F45.00
G01 X38.0232 Y-8.9674 F45.00
G01 X38.0292 Y-8.9912 F45.00
G01 X38.0328 Y-9.0155 F45.00
G01 X38.0340 Y-9.0400 F45.00
G00 X38.0340 Y-9.0400
G01 F30.00
G01 Z-0.6000
G01 F45.00
G01 X38.0328 Y-9.0645 F45.00
G01 X38.0292 Y-9.0888 F45.00
G01 X38.0232 Y-9.1126 F45.00
G01 X38.0150 Y-9.1357 F45.00
G01 X38.0045 Y-9.1578 F45.00
G01 X37.9919 Y-9.1789 F45.00
G01 X37.9773 Y-9.1986 F45.00
G01 X37.9608 Y-9.2168 F45.00
G01 X37.9426 Y-9.2333 F45.00
G01 X37.9229 Y-9.2479 F45.00
G01 X37.9018 Y-9.2605 F45.00
G01 X37.8797 Y-9.2710 F45.00
G01 X37.8566 Y-9.2792 F45.00
G01 X37.8328 Y-9.2852 F45.00
G01 X37.8085 Y-9.2888 F45.00
G01 X37.7840 Y-9.2900 F45.00
G01 X37.7595 Y-9.2888 F45.00
G01 X37.7352 Y-9.2852 F45.00
G01 X37.7114 Y-9.2792 F45.00
G01 X37.6883 Y-9.2710 F45.00
G01 X37.6662 Y-9.2605 F45.00
G01 X37.6451 Y-9.2479 F45.00
G01 X37.6254 Y-9.2333 F45.00
G01 X37.6072 Y-9.2168 F45.00
G01 X37.5907 Y-9.1986 F45.00
G01 X37.5761 Y-9.1789 F45.00
G01 X37.5635 Y-9.1578 F45.00
G01 X37.5530 Y-9.1357 F45.00
G01 X37.5448 Y-9.1126 F45.00
G01 X37.5388 Y-9.0888 F45.00
G01 X37.5352 Y-9.0645 F45.00
G01 X37.5340 Y-9.0400 F45.00
G01 X37.5352 Y-9.0155 F45.00
G01 X37.5388 Y-8.9912 F45.00
G01 X37.5448 Y-8.9674 F45.00
G01 X37.5530 Y-8.9443 F45.00
G01 X37.5635 Y-8.9222 F45.00
G01 X37.5761 Y-8.9011 F45.00
G01 X37.5907 Y-8.8814 F45.00
G01 X37.6072 Y-8.8632 F45.00
G01 X37.6254 Y-8.8467 F45.00
G01 X37.6451 Y-8.8321 F45.00
G01 X37.6662 Y-8.8195 F45.00
G01 X37.6883 Y-8.8090 F45.00
G01 X37.7114 Y-8.8008 F45.00
G01 X37.7352 Y-8.7948 F45.00
G01 X37.7595 Y-8.7912 F45.00
G01 X37.7840 Y-8.7900 F45.00
G01 X37.8085 Y-8.7912 F45.00
G01 X37.8328 Y-8.7948 F45.00
G01 X37.8566 Y-8.8008 F45.00
G01 X37.8797 Y-8.8090 F45.00
G01 X37.9018 Y-8.8195 F45.00
G01 X37.9229 Y-8.8321 F45.00
G01 X37.9426 Y-8.8467 F45.00
G01 X37.9608 Y-8.8632 F45.00
G01 X37.9773 Y-8.8814 F45.00
G01 X37.9919 Y-8.9011 F45.00
G01 X38.0045 Y-8.9222 F45.00
G01 X38.0150 Y-8.9443 F45.00
G01 X38.0232 Y-8.9674 F45.00
G01 X38.0292 Y-8.9912 F45.00
G01 X38.0328 Y-9.0155 F45.00
G01 X38.0340 Y-9.0400 F45.00
G00 X38.0340 Y-9.0400
G01 F30.00
G01 Z-0.9000
G01 F45.00
G01 X38.0328 Y-9.0645 F45.00
G01 X38.0292 Y-9.0888 F45.00
G01 X38.0232 Y-9.1126 F45.00
G01 X38.0150 Y-9.1357 F45.00
G01 X38.0045 Y-9.1578 F45.00
G01 X37.9919 Y-9.1789 F45.00
G01 X37.9773 Y-9.1986 F45.00
G01 X37.9608 Y-9.2168 F45.00
G01 X37.9426 Y-9.2333 F45.00
G01 X37.9229 Y-9.2479 F45.00
G01 X37.9018 Y-9.2605 F45.00
G01 X37.8797 Y-9.2710 F45.00
G01 X37.8566 Y-9.2792 F45.00
G01 X37.8328 Y-9.2852 F45.00
G01 X37.8085 Y-9.2888 F45.00
G01 X37.7840 Y-9.2900 F45.00
G01 X37.7595 Y-9.2888 F45.00
G01 X37.7352 Y-9.2852 F45.00
G01 X37.7114 Y-9.2792 F45.00
G01 X37.6883 Y-9.2710 F45.00
G01 X37.6662 Y-9.2605 F45.00
G01 X37.6451 Y-9.2479 F45.00
G01 X37.6254 Y-9.2333 F45.00
G01 X37.6072 Y-9.2168 F45.00
G01 X37.5907 Y-9.1986 F45.00
G01 X37.5761 Y-9.1789 F45.00
G01 X37.5635 Y-9.1578 F45.00
G01 X37.5530 Y-9.1357 F45.00
G01 X37.5448 Y-9.1126 F45.00
G01 X37.5388 Y-9.0888 F45.00
G01 X37.5352 Y-9.0645 F45.00
G01 X37.5340 Y-9.0400 F45.00
G01 X37.5352 Y-9.0155 F45.00
G01 X37.5388 Y-8.9912 F45.00
G01 X37.5448 Y-8.9674 F45.00
G01 X37.5530 Y-8.9443 F45.00
G01 X37.5635 Y-8.9222 F45.00
G01 X37.5761 Y-8.9011 F45.00
G01 X37.5907 Y-8.8814 F45.00
G01 X37.6072 Y-8.8632 F45.00
G01 X37.6254 Y-8.8467 F45.00
G01 X37.6451 Y-8.8321 F45.00
G01 X37.6662 Y-8.8195 F45.00
G01 X37.6883 Y-8.8090 F45.00
G01 X37.7114 Y-8.8008 F45.00
G01 X37.7352 Y-8.7948 F45.00
G01 X37.7595 Y-8.7912 F45.00
G01 X37.7840 Y-8.7900 F45.00
G01 X37.8085 Y-8.7912 F45.00
G01 X37.8328 Y-8.7948 F45.00
G01 X37.8566 Y-8.8008 F45.00
G01 X37.8797 Y-8.8090 F45.00
G01 X37.9018 Y-8.8195 F45.00
G01 X37.9229 Y-8.8321 F45.00
G01 X37.9426 Y-8.8467 F45.00
G01 X37.9608 Y-8.8632 F45.00
G01 X37.9773 Y-8.8814 F45.00
G01 X37.9919 Y-8.9011 F45.00
G01 X38.0045 Y-8.9222 F45.00
G01 X38.0150 Y-8.9443 F45.00
G01 X38.0232 Y-8.9674 F45.00
G01 X38.0292 Y-8.9912 F45.00
G01 X38.0328 Y-9.0155 F45.00
G01 X38.0340 Y-9.0400 F45.00
G00 X38.0340 Y-9.0400
G01 F30.00
G01 Z-1.2000
G01 F45.00
G01 X38.0328 Y-9.0645 F45.00
G01 X38.0292 Y-9.0888 F45.00
G01 X38.0232 Y-9.1126 F45.00
G01 X38.0150 Y-9.1357 F45.00
G01 X38.0045 Y-9.1578 F45.00
G01 X37.9919 Y-9.1789 F45.00
G01 X37.9773 Y-9.1986 F45.00
G01 X37.9608 Y-9.2168 F45.00
G01 X37.9426 Y-9.2333 F45.00
G01 X37.9229 Y-9.2479 F45.00
G01 X37.9018 Y-9.2605 F45.00
G01 X37.8797 Y-9.2710 F45.00
G01 X37.8566 Y-9.2792 F45.00
G01 X37.8328 Y-9.2852 F45.00
G01 X37.8085 Y-9.2888 F45.00
G01 X37.7840 Y-9.2900 F45.00
G01 X37.7595 Y-9.2888 F45.00
G01 X37.7352 Y-9.2852 F45.00
G01 X37.7114 Y-9.2792 F45.00
G01 X37.6883 Y-9.2710 F45.00
G01 X37.6662 Y-9.2605 F45.00
G01 X37.6451 Y-9.2479 F45.00
G01 X37.6254 Y-9.2333 F45.00
G01 X37.6072 Y-9.2168 F45.00
G01 X37.5907 Y-9.1986 F45.00
G01 X37.5761 Y-9.1789 F45.00
G01 X37.5635 Y-9.1578 F45.00
G01 X37.5530 Y-9.1357 F45.00
G01 X37.5448 Y-9.1126 F45.00
G01 X37.5388 Y-9.0888 F45.00
G01 X37.5352 Y-9.0645 F45.00
G01 X37.5340 Y-9.0400 F45.00
G01 X37.5352 Y-9.0155 F45.00
G01 X37.5388 Y-8.9912 F45.00
G01 X37.5448 Y-8.9674 F45.00
G01 X37.5530 Y-8.9443 F45.00
G01 X37.5635 Y-8.9222 F45.00
G01 X37.5761 Y-8.9011 F45.00
G01 X37.5907 Y-8.8814 F45.00
G01 X37.6072 Y-8.8632 F45.00
G01 X37.6254 Y-8.8467 F45.00
G01 X37.6451 Y-8.8321 F45.00
G01 X37.6662 Y-8.8195 F45.00
G01 X37.6883 Y-8.8090 F45.00
G01 X37.7114 Y-8.8008 F45.00
G01 X37.7352 Y-8.7948 F45.00
G01 X37.7595 Y-8.7912 F45.00
G01 X37.7840 Y-8.7900 F45.00
G01 X37.8085 Y-8.7912 F45.00
G01 X37.8328 Y-8.7948 F45.00
G01 X37.8566 Y-8.8008 F45.00
G01 X37.8797 Y-8.8090 F45.00
G01 X37.9018 Y-8.8195 F45.00
G01 X37.9229 Y-8.8321 F45.00
G01 X37.9426 Y-8.8467 F45.00
G01 X37.9608 Y-8.8632 F45.00
G01 X37.9773 Y-8.8814 F45.00
G01 X37.9919 Y-8.9011 F45.00
G01 X38.0045 Y-8.9222 F45.00
G01 X38.0150 Y-8.9443 F45.00
G01 X38.0232 Y-8.9674 F45.00
G01 X38.0292 Y-8.9912 F45.00
G01 X38.0328 Y-9.0155 F45.00
G01 X38.0340 Y-9.0400 F45.00
G00 X38.0340 Y-9.0400
G01 F30.00
G01 Z-1.5000
G01 F45.00
G01 X38.0328 Y-9.0645 F45.00
G01 X38.0292 Y-9.0888 F45.00
G01 X38.0232 Y-9.1126 F45.00
G01 X38.0150 Y-9.1357 F45.00
G01 X38.0045 Y-9.1578 F45.00
G01 X37.9919 Y-9.1789 F45.00
G01 X37.9773 Y-9.1986 F45.00
G01 X37.9608 Y-9.2168 F45.00
G01 X37.9426 Y-9.2333 F45.00
G01 X37.9229 Y-9.2479 F45.00
G01 X37.9018 Y-9.2605 F45.00
G01 X37.8797 Y-9.2710 F45.00
G01 X37.8566 Y-9.2792 F45.00
G01 X37.8328 Y-9.2852 F45.00
G01 X37.8085 Y-9.2888 F45.00
G01 X37.7840 Y-9.2900 F45.00
G01 X37.7595 Y-9.2888 F45.00
G01 X37.7352 Y-9.2852 F45.00
G01 X37.7114 Y-9.2792 F45.00
G01 X37.6883 Y-9.2710 F45.00
G01 X37.6662 Y-9.2605 F45.00
G01 X37.6451 Y-9.2479 F45.00
G01 X37.6254 Y-9.2333 F45.00
G01 X37.6072 Y-9.2168 F45.00
G01 X37.5907 Y-9.1986 F45.00
G01 X37.5761 Y-9.1789 F45.00
G01 X37.5635 Y-9.1578 F45.00
G01 X37.5530 Y-9.1357 F45.00
G01 X37.5448 Y-9.1126 F45.00
G01 X37.5388 Y-9.0888 F45.00
G01 X37.5352 Y-9.0645 F45.00
G01 X37.5340 Y-9.0400 F45.00
G01 X37.5352 Y-9.0155 F45.00
G01 X37.5388 Y-8.9912 F45.00
G01 X37.5448 Y-8.9674 F45.00
G01 X37.5530 Y-8.9443 F45.00
G01 X37.5635 Y-8.9222 F45.00
G01 X37.5761 Y-8.9011 F45.00
G01 X37.5907 Y-8.8814 F45.00
G01 X37.6072 Y-8.8632 F45.00
G01 X37.6254 Y-8.8467 F45.00
G01 X37.6451 Y-8.8321 F45.00
G01 X37.6662 Y-8.8195 F45.00
G01 X37.6883 Y-8.8090 F45.00
G01 X37.7114 Y-8.8008 F45.00
G01 X37.7352 Y-8.7948 F45.00
G01 X37.7595 Y-8.7912 F45.00
G01 X37.7840 Y-8.7900 F45.00
G01 X37.8085 Y-8.7912 F45.00
G01 X37.8328 Y-8.7948 F45.00
G01 X37.8566 Y-8.8008 F45.00
G01 X37.8797 Y-8.8090 F45.00
G01 X37.9018 Y-8.8195 F45.00
G01 X37.9229 Y-8.8321 F45.00
G01 X37.9426 Y-8.8467 F45.00
G01 X37.9608 Y-8.8632 F45.00
G01 X37.9773 Y-8.8814 F45.00
G01 X37.9919 Y-8.9011 F45.00
G01 X38.0045 Y-8.9222 F45.00
G01 X38.0150 Y-8.9443 F45.00
G01 X38.0232 Y-8.9674 F45.00
G01 X38.0292 Y-8.9912 F45.00
G01 X38.0328 Y-9.0155 F45.00
G01 X38.0340 Y-9.0400 F45.00
G00 X38.0340 Y-9.0400
G01 F30.00
G01 Z-1.8000
G01 F45.00
G01 X38.0328 Y-9.0645 F45.00
G01 X38.0292 Y-9.0888 F45.00
G01 X38.0232 Y-9.1126 F45.00
G01 X38.0150 Y-9.1357 F45.00
G01 X38.0045 Y-9.1578 F45.00
G01 X37.9919 Y-9.1789 F45.00
G01 X37.9773 Y-9.1986 F45.00
G01 X37.9608 Y-9.2168 F45.00
G01 X37.9426 Y-9.2333 F45.00
G01 X37.9229 Y-9.2479 F45.00
G01 X37.9018 Y-9.2605 F45.00
G01 X37.8797 Y-9.2710 F45.00
G01 X37.8566 Y-9.2792 F45.00
G01 X37.8328 Y-9.2852 F45.00
G01 X37.8085 Y-9.2888 F45.00
G01 X37.7840 Y-9.2900 F45.00
G01 X37.7595 Y-9.2888 F45.00
G01 X37.7352 Y-9.2852 F45.00
G01 X37.7114 Y-9.2792 F45.00
G01 X37.6883 Y-9.2710 F45.00
G01 X37.6662 Y-9.2605 F45.00
G01 X37.6451 Y-9.2479 F45.00
G01 X37.6254 Y-9.2333 F45.00
G01 X37.6072 Y-9.2168 F45.00
G01 X37.5907 Y-9.1986 F45.00
G01 X37.5761 Y-9.1789 F45.00
G01 X37.5635 Y-9.1578 F45.00
G01 X37.5530 Y-9.1357 F45.00
G01 X37.5448 Y-9.1126 F45.00
G01 X37.5388 Y-9.0888 F45.00
G01 X37.5352 Y-9.0645 F45.00
G01 X37.5340 Y-9.0400 F45.00
G01 X37.5352 Y-9.0155 F45.00
G01 X37.5388 Y-8.9912 F45.00
G01 X37.5448 Y-8.9674 F45.00
G01 X37.5530 Y-8.9443 F45.00
G01 X37.5635 Y-8.9222 F45.00
G01 X37.5761 Y-8.9011 F45.00
G01 X37.5907 Y-8.8814 F45.00
G01 X37.6072 Y-8.8632 F45.00
G01 X37.6254 Y-8.8467 F45.00
G01 X37.6451 Y-8.8321 F45.00
G01 X37.6662 Y-8.8195 F45.00
G01 X37.6883 Y-8.8090 F45.00
G01 X37.7114 Y-8.8008 F45.00
G01 X37.7352 Y-8.7948 F45.00
G01 X37.7595 Y-8.7912 F45.00
G01 X37.7840 Y-8.7900 F45.00
G01 X37.8085 Y-8.7912 F45.00
G01 X37.8328 Y-8.7948 F45.00
G01 X37.8566 Y-8.8008 F45.00
G01 X37.8797 Y-8.8090 F45.00
G01 X37.9018 Y-8.8195 F45.00
G01 X37.9229 Y-8.8321 F45.00
G01 X37.9426 Y-8.8467 F45.00
G01 X37.9608 Y-8.8632 F45.00
G01 X37.9773 Y-8.8814 F45.00
G01 X37.9919 Y-8.9011 F45.00
G01 X38.0045 Y-8.9222 F45.00
G01 X38.0150 Y-8.9443 F45.00
G01 X38.0232 Y-8.9674 F45.00
G01 X38.0292 Y-8.9912 F45.00
G01 X38.0328 Y-9.0155 F45.00
G01 X38.0340 Y-9.0400 F45.00
G00 Z2.0000


(Slot: 0.9)
G01 F45.00
G00 X3.0220 Y-6.7161
G01 F30.00
G01 Z-0.3000
G01 F45.00
G01 X3.0220 Y-6.7159 F45.00
G01 X4.6221 Y-6.7160 F45.00
G01 X4.6220 Y-6.7161 F45.00
G01 X3.0220 Y-6.7161 F45.00
G00 X3.0220 Y-6.7161
G01 F30.00
G01 Z-0.6000
G01 F45.00
G01 X3.0220 Y-6.7159 F45.00
G01 X4.6221 Y-6.7160 F45.00
G01 X4.6220 Y-6.7161 F45.00
G01 X3.0220 Y-6.7161 F45.00
G00 X3.0220 Y-6.7161
G01 F30.00
G01 Z-0.9000
G01 F45.00
G01 X3.0220 Y-6.7159 F45.00
G01 X4.6221 Y-6.7160 F45.00
G01 X4.6220 Y-6.7161 F45.00
G01 X3.0220 Y-6.7161 F45.00
G00 X3.0220 Y-6.7161
G01 F30.00
G01 Z-1.2000
G01 F45.00
G01 X3.0220 Y-6.7159 F45.00
G01 X4.6221 Y-6.7160 F45.00
G01 X4.6220 Y-6.7161 F45.00
G01 X3.0220 Y-6.7161 F45.00
G00 X3.0220 Y-6.7161
G01 F30.00
G01 Z-1.5000
G01 F45.00
G01 X3.0220 Y-6.7159 F45.00
G01 X4.6221 Y-6.7160 F45.00
G01 X4.6220 Y-6.7161 F45.00
G01 X3.0220 Y-6.7161 F45.00
G00 X3.0220 Y-6.7161
G01 F30.00
G01 Z-1.8000
G01 F45.00
G01 X3.0220 Y-6.7159 F45.00
G01 X4.6221 Y-6.7160 F45.00
G01 X4.6220 Y-6.7161 F45.00
G01 X3.0220 Y-6.7161 F45.00
G00 Z2.0000
G00 X3.0220 Y-18.1161
G01 F30.00
G01 Z-0.3000
G01 F45.00
G01 X3.0220 Y-18.1159 F45.00
G01 X4.6221 Y-18.1160 F45.00
G01 X4.6220 Y-18.1161 F45.00
G01 X3.0220 Y-18.1161 F45.00
G00 X3.0220 Y-18.1161
G01 F30.00
G01 Z-0.6000
G01 F45.00
G01 X3.0220 Y-18.1159 F45.00
G01 X4.6221 Y-18.1160 F45.00
G01 X4.6220 Y-18.1161 F45.00
G01 X3.0220 Y-18.1161 F45.00
G00 X3.0220 Y-18.1161
G01 F30.00
G01 Z-0.9000
G01 F45.00
G01 X3.0220 Y-18.1159 F45.00
G01 X4.6221 Y-18.1160 F45.00
G01 X4.6220 Y-18.1161 F45.00
G01 X3.0220 Y-18.1161 F45.00
G00 X3.0220 Y-18.1161
G01 F30.00
G01 Z-1.2000
G01 F45.00
G01 X3.0220 Y-18.1159 F45.00
G01 X4.6221 Y-18.1160 F45.00
G01 X4.6220 Y-18.1161 F45.00
G01 X3.0220 Y-18.1161 F45.00
G00 X3.0220 Y-18.1161
G01 F30.00
G01 Z-1.5000
G01 F45.00
G01 X3.0220 Y-18.1159 F45.00
G01 X4.6221 Y-18.1160 F45.00
G01 X4.6220 Y-18.1161 F45.00
G01 X3.0220 Y-18.1161 F45.00
G00 X3.0220 Y-18.1161
G01 F30.00
G01 Z-1.8000
G01 F45.00
G01 X3.0220 Y-18.1159 F45.00
G01 X4.6221 Y-18.1160 F45.00
G01 X4.6220 Y-18.1161 F45.00
G01 X3.0220 Y-18.1161 F45.00
G00 Z2.0000

(Name: power-bank-load.drl_mill_slot_1_cnc)
G01 F45.00
G00 X35.5299 Y-17.5120
G01 F30.00
G01 Z-0.3000
G01 F45.00
G01 X35.5301 Y-17.5120 F45.00
G01 X35.5300 Y-19.5121 F45.00
G01 X35.5299 Y-19.5120 F45.00
G01 X35.5299 Y-17.5120 F45.00
G00 X35.5299 Y-17.5120
G01 F30.00
G01 Z-0.6000
G01 F45.00
G01 X35.5301 Y-17.5120 F45.00
G01 X35.5300 Y-19.5121 F45.00
G01 X35.5299 Y-19.5120 F45.00
G01 X35.5299 Y-17.5120 F45.00
G00 X35.5299 Y-17.5120
G01 F30.00
G01 Z-0.9000
G01 F45.00
G01 X35.5301 Y-17.5120 F45.00
G01 X35.5300 Y-19.5121 F45.00
G01 X35.5299 Y-19.5120 F45.00
G01 X35.5299 Y-17.5120 F45.00
G00 X35.5299 Y-17.5120
G01 F30.00
G01 Z-1.2000
G01 F45.00
G01 X35.5301 Y-17.5120 F45.00
G01 X35.5300 Y-19.5121 F45.00
G01 X35.5299 Y-19.5120 F45.00
G01 X35.5299 Y-17.5120 F45.00
G00 X35.5299 Y-17.5120
G01 F30.00
G01 Z-1.5000
G01 F45.00
G01 X35.5301 Y-17.5120 F45.00
G01 X35.5300 Y-19.5121 F45.00
G01 X35.5299 Y-19.5120 F45.00
G01 X35.5299 Y-17.5120 F45.00
G00 X35.5299 Y-17.5120
G01 F30.00
G01 Z-1.8000
G01 F45.00
G01 X35.5301 Y-17.5120 F45.00
G01 X35.5300 Y-19.5121 F45.00
G01 X35.5299 Y-19.5120 F45.00
G01 X35.5299 Y-17.5120 F45.00
G00 Z2.0000
G00 X37.5300 Y-13.8121
G01 F30.00
G01 Z-0.3000
G01 F45.00
G01 X37.5300 Y-13.8119 F45.00
G01 X39.5301 Y-13.8120 F45.00
G01 X39.5300 Y-13.8121 F45.00
G01 X37.5300 Y-13.8121 F45.00
G00 X37.5300 Y-13.8121
G01 F30.00
G01 Z-0.6000
G01 F45.00
G01 X37.5300 Y-13.8119 F45.00
G01 X39.5301 Y-13.8120 F45.00
G01 X39.5300 Y-13.8121 F45.00
G01 X37.5300 Y-13.8121 F45.00
G00 X37.5300 Y-13.8121
G01 F30.00
G01 Z-0.9000
G01 F45.00
G01 X37.5300 Y-13.8119 F45.00
G01 X39.5301 Y-13.8120 F45.00
G01 X39.5300 Y-13.8121 F45.00
G01 X37.5300 Y-13.8121 F45.00
G00 X37.5300 Y-13.8121
G01 F30.00
G01 Z-1.2000
G01 F45.00
G01 X37.5300 Y-13.8119 F45.00
G01 X39.5301 Y-13.8120 F45.00
G01 X39.5300 Y-13.8121 F45.00
G01 X37.5300 Y-13.8121 F45.00
G00 X37.5300 Y-13.8121
G01 F30.00
G01 Z-1.5000
G01 F45.00
G01 X37.5300 Y-13.8119 F45.00
G01 X39.5301 Y-13.8120 F45.00
G01 X39.5300 Y-13.8121 F45.00
G01 X37.5300 Y-13.8121 F45.00
G00 X37.5300 Y-13.8121
G01 F30.00
G01 Z-1.8000
G01 F45.00
G01 X37.5300 Y-13.8119 F45.00
G01 X39.5301 Y-13.8120 F45.00
G01 X39.5300 Y-13.8121 F45.00
G01 X37.5300 Y-13.8121 F45.00
G00 Z2.0000
G00 X41.5299 Y-17.5120
G01 F30.00
G01 Z-0.3000
G01 F45.00
G01 X41.5301 Y-17.5120 F45.00
G01 X41.5300 Y-19.5121 F45.00
G01 X41.5299 Y-19.5120 F45.00
G01 X41.5299 Y-17.5120 F45.00
G00 X41.5299 Y-17.5120
G01 F30.00
G01 Z-0.6000
G01 F45.00
G01 X41.5301 Y-17.5120 F45.00
G01 X41.5300 Y-19.5121 F45.00
G01 X41.5299 Y-19.5120 F45.00
G01 X41.5299 Y-17.5120 F45.00
G00 X41.5299 Y-17.5120
G01 F30.00
G01 Z-0.9000
G01 F45.00
G01 X41.5301 Y-17.5120 F45.00
G01 X41.5300 Y-19.5121 F45.00
G01 X41.5299 Y-19.5120 F45.00
G01 X41.5299 Y-17.5120 F45.00
G00 X41.5299 Y-17.5120
G01 F30.00
G01 Z-1.2000
G01 F45.00
G01 X41.5301 Y-17.5120 F45.00
G01 X41.5300 Y-19.5121 F45.00
G01 X41.5299 Y-19.5120 F45.00
G01 X41.5299 Y-17.5120 F45.00
G00 X41.5299 Y-17.5120
G01 F30.00
G01 Z-1.5000
G01 F45.00
G01 X41.5301 Y-17.5120 F45.00
G01 X41.5300 Y-19.5121 F45.00
G01 X41.5299 Y-19.5120 F45.00
G01 X41.5299 Y-17.5120 F45.00
G00 X41.5299 Y-17.5120
G01 F30.00
G01 Z-1.8000
G01 F45.00
G01 X41.5301 Y-17.5120 F45.00
G01 X41.5300 Y-19.5121 F45.00
G01 X41.5299 Y-19.5120 F45.00
G01 X41.5299 Y-17.5120 F45.00
G00 Z2.0000
M05
G00 Z2.0000
G00 Z15.00
G00 X0.0 Y0.0


